!!!!SEGMENT: pl-kk--kk-i-324--004_casali-giovanni-battista--in-hac-festiva-die-caelesti-sacrate.krn
!!!cenid: 17xx:2135
!!!COM: Casali, Giovanni Battista
!!!COM-rismid: pe30000607
!!!CDT: 1715-1792/07/06
!!!CNT: Italian
!!!OPR: In hac festiva die
!!!OTL: Caelesti sacrate
!!!OMV: 004
!!!PDT:
!!!AGN: Sacred
!!!SMS-siglum: PL-Kk
!!!SMS-shelfmark: Kk.I.324
!!!SMS-shelfwork: 001-004 M
!!!SMS-variant:
!!!SMS-altvar:
!!!NIFC-rismid: 1001146199
!!!URL-scan: http://repozytorium.nifc.pl/skany/pl-kk-nut--i-324
!!!ONB-nifc: UWAGA: części: 1. In hac festiva die (Recitativo), 2. Iam canorus (Allegro), 3. Tristitie ergo mortales (Recitativo), 4. Caelesti sacrate (Andante), 5. Alleluia (Allegro)
!!!key:
**kern	**dynam	**kern	**text	**kern	**dynam	**kern	**dynam	**kern	**dynam
*part5	*part5	*part4	*part4	*part3	*part3	*part2	*part2	*part1	*part1
*staff5	*	*staff4	*staff4	*staff3	*	*staff2	*	*staff1	*
*group2	*	*group2	*	*group1	*	*group1	*	*group1	*
*Iorgan	*	*Iempty	*	*Iviola	*	*Ivioln	*	*Ivioln	*
*I"Organo	*	*I"Baſso	*	*I"Viola	*	*I"Violino Secondo	*	*I"Violino Primo	*
*I'org	*	*I'B	*	*I'vla	*	*I'vl 2	*	*I'vl 1	*
*clefF4	*	*clefF4	*	*clefC3	*	*clefG2	*	*clefG2	*
*k[f#]	*	*k[f#]	*	*k[f#]	*	*k[f#]	*	*k[f#]	*
*G:	*	*G:	*	*G:	*	*G:	*	*G:	*
*M3/4	*	*M3/4	*	*M3/4	*	*M3/4	*	*M3/4	*
!	!	!	!	!LO:TX:a:t== Arma dedere =	!	!LO:TX:a:t=Arma dedere	!	!LO:TX:a:t== Arma dedere =	!
!LO:TX:a:B:t=And&colon;te	!	!LO:TX:a:B:t=And&colon;te	!	!LO:TX:a:B:t=And&colon;e	!	!LO:TX:a:B:t=And&colon;e	!	!LO:TX:a:B:t=And&colon;te	!
8r	.	8r	.	8r	.	8r	.	8dd\	.
=1	=1	=1	=1	=1	=1	=1	=1	=1	=1
*	*	*	*	*2\right	*	*	*	*	*
8G\L	.	2.r	.	[2.d\	.	16b/LL	.	4gg\	.
.	.	.	.	.	.	16d/	.	.	.
8G\	.	.	.	.	.	16b/	.	.	.
.	.	.	.	.	.	16d/JJ	.	.	.
8G\	.	.	.	.	.	16b/LL	.	4.bb\	.
.	.	.	.	.	.	16d/	.	.	.
8G\	.	.	.	.	.	16b/	.	.	.
.	.	.	.	.	.	16d/JJ	.	.	.
8G\	.	.	.	.	.	16b/LL	.	.	.
.	.	.	.	.	.	16d/	.	.	.
8G\J	.	.	.	.	.	16b/	.	8ccc\	.
.	.	.	.	.	.	16d/JJ	.	.	.
=2	=2	=2	=2	=2	=2	=2	=2	=2	=2
!	!	!	!	!	!	!LO:TX:b:t=Siegue	!	!	!
8F#\L	.	2.r	.	2.d\]	.	2.a 2.d/	.	4ddd\	.
8F#\	.	.	.	.	.	.	.	.	.
8F#\	.	.	.	.	.	.	.	4dd\	.
8F#\	.	.	.	.	.	.	.	.	.
8F#\	.	.	.	.	.	.	.	8r	.
8F#\J	.	.	.	.	.	.	.	8dd\	.
=3	=3	=3	=3	=3	=3	=3	=3	=3	=3
8E\L	.	2.r	.	[>2.B/	.	2.g 2.B/	.	4ee\	.
8E\	.	.	.	.	.	.	.	.	.
8E\	.	.	.	.	.	.	.	4.gg\	.
8E\	.	.	.	.	.	.	.	.	.
8E\	.	.	.	.	.	.	.	.	.
8E\J	.	.	.	.	.	.	.	8aa\	.
=4	=4	=4	=4	=4	=4	=4	=4	=4	=4
8D/L	.	2.r	.	2.B/]	.	2.f# 2.B/	.	4bb\	.
8D/	.	.	.	.	.	.	.	.	.
8D/	.	.	.	.	.	.	.	4b/	.
8D/	.	.	.	.	.	.	.	.	.
8D/	.	.	.	.	.	.	.	8r	.
8D/J	.	.	.	.	.	.	.	8b/	.
=5	=5	=5	=5	=5	=5	=5	=5	=5	=5
8C/L	.	2.r	.	[>2.G/	.	2.e 2.G/	.	4cc\	.
8C/	.	.	.	.	.	.	.	.	.
8C/	.	.	.	.	.	.	.	4.ee\	.
8C/	.	.	.	.	.	.	.	.	.
8C/	.	.	.	.	.	.	.	.	.
8C/J	.	.	.	.	.	.	.	8ff#\	.
!LO:LB:g=original	!	!LO:LB:g=original	!	!	!	!	!	!	!
=6	=6	=6	=6	=6	=6	=6	=6	=6	=6
8BB/L	.	2.r	.	2.G/_>	.	2.d 2.G/	.	4gg\	.
8BB/	.	.	.	.	.	.	.	.	.
8BB/	.	.	.	.	.	.	.	4g/	.
8BB/	.	.	.	.	.	.	.	.	.
8BB/	.	.	.	.	.	.	.	8r	.
8BB/J	.	.	.	.	.	.	.	8ddd\	.
!	!	!	!	!	!	!	!	!LO:LB:g=original	!
=7	=7	=7	=7	=7	=7	=7	=7	=7	=7
!LO:TX:t=P:problem=mixed beam	!	!	!	!LO:N:vis=2.	!	!	!	!	!
8AA/L	.	2.r	.	2G/]	.	2e 2A/	.	4ccc\	.
8AA/	.	.	.	.	.	.	.	.	.
8AA/	.	.	.	.	.	.	.	4ccc\	.
8AA/	.	.	.	.	.	.	.	.	.
8F#/	.	.	.	4d\	.	16d/LL	.	8r	.
.	.	.	.	.	.	16A/	.	.	.
8F#/J	.	.	.	.	.	16d/	.	8aa\	.
.	.	.	.	.	.	16A/JJ	.	.	.
=8	=8	=8	=8	=8	=8	=8	=8	=8	=8
4G\|	.	2.r	.	4d|\	.	8B/	.	4bb|\	.
.	.	.	.	.	.	8d/L	p	.	.
4r	.	.	.	4r	.	8d/	.	4rg	.
.	.	.	.	.	.	8d/	.	.	.
4r	.	.	.	4r	.	8d/	.	4rg	.
.	.	.	.	.	.	8d/J	.	.	.
=9	=9	=9	=9	=9	=9	=9	=9	=9	=9
*	*below	*	*	*	*	*	*	*	*
!	!LO:DY:rj:t=p.	!	!	!	!	!	!	!LO:TX:b:t=1	!
8.G\L	p	2.r	.	4b|\	p	8d/L	.	2.r	.
.	.	.	.	.	.	8d/	.	.	.
16A\K	.	.	.	.	.	.	.	.	.
8.B\	.	.	.	4r	.	8d/	.	.	.
.	.	.	.	.	.	8d/	.	.	.
16c\K	.	.	.	.	.	.	.	.	.
8.d\	.	.	.	(4b\	.	8d/	.	.	.
.	.	.	.	.	.	8d/J	.	.	.
16G\Jk	.	.	.	.	.	.	.	.	.
!	!	!	!	!LO:LB:g=original	!	!	!	!	!
=10	=10	=10	=10	=10	=10	=10	=10	=10	=10
*	*	*	*	*	*	*tremolo	*	*	*
!	!	!	!	!	!	!	!	!	!LO:DY:rj:t=p.
4F#\	.	2.r	.	4a\)	.	8d/L	.	8.dd\L	p
.	.	.	.	.	.	8d/	.	.	.
.	.	.	.	.	.	.	.	16ee\K	.
4r	.	.	.	4r	.	8d/	.	8.ff#\	.
.	.	.	.	.	.	8d/	.	.	.
.	.	.	.	.	.	.	.	16gg\K	.
4r	.	.	.	4r	.	8d/	.	8.aa\	.
.	.	.	.	.	.	8d/J	.	.	.
.	.	.	.	.	.	.	.	16ccc\Jk	.
=11	=11	=11	=11	=11	=11	=11	=11	=11	=11
!	!LO:DY:t=po.f.	!	!	!	!LO:DY:t=pof&colon;	!	!LO:DY:t=pof&colon;	!	!
8.G\L	fp	2.r	.	4b\	fp	8d/L	fp	4bb\	.
.	.	.	.	.	.	8d/	.	.	.
16A\K	.	.	.	.	.	.	.	.	.
8.B\	.	.	.	4r	.	8d/	.	4rg	.
.	.	.	.	.	.	8d/	.	.	.
16c\K	.	.	.	.	.	.	.	.	.
8.d\	.	.	.	(4b\	.	8d/	.	4rg	.
.	.	.	.	.	.	8d/J	.	.	.
16G\Jk	.	.	.	.	.	.	.	.	.
!LO:LB:g=original	!	!LO:LB:g=original	!	!	!	!	!	!	!
=12	=12	=12	=12	=12	=12	=12	=12	=12	=12
!	!	!	!	!	!	!	!	!	!LO:DY:rj:t=po f.
4F#\	.	2.r	.	4a\)	.	8d/L	.	8.dd\L	fp
.	.	.	.	.	.	8d/	.	.	.
.	.	.	.	.	.	.	.	16ee\K	.
4r	.	.	.	4r	.	8d/	.	8.ff#\	.
.	.	.	.	.	.	8d/	.	.	.
.	.	.	.	.	.	.	.	16gg\K	.
4r	.	.	.	4r	.	8d/	.	8.aa\	.
.	.	.	.	.	.	8d/J	.	.	.
.	.	.	.	.	.	.	.	16ccc\Jk	.
*	*	*	*	*	*	*Xtremolo	*	*	*
!	!	!	!	!	!	!LO:LB:g=original	!	!	!
=13	=13	=13	=13	=13	=13	=13	=13	=13	=13
!	!	!	!	!	!	!	!	!	!LO:DY:rj:t=f.
8GG/L	.	2.r	.	8G/L	.	(4dd\	f	(32ddd\LLL	f
.	.	.	.	.	.	.	.	32ccc\JJ	.
.	.	.	.	.	.	.	.	8.gg\J)	.
8GG/	.	.	.	8G/	.	.	.	.	.
8AA/	.	.	.	8A/	.	4cc\	.	(32ff#\LLL	.
.	.	.	.	.	.	.	.	32gg\JJ	.
.	.	.	.	.	.	.	.	8.aa\J)	.
8AA/	.	.	.	8A/	.	.	.	.	.
8BB/	.	.	.	8B/	.	4dd\	.	(32gg\LLL	.
.	.	.	.	.	.	.	.	32aa\JJ	.
.	.	.	.	.	.	.	.	8.bb\J)	.
8BB/J	.	.	.	8B/J	.	.	.	.	.
!	!	!	!	!	!	!	!	!LO:LB:g=original	!
=14	=14	=14	=14	=14	=14	=14	=14	=14	=14
8C/L	.	2.r	.	8c/L	.	4ee\	.	(32ee\LLL	.
.	.	.	.	.	.	.	.	32ff#\JJ	.
.	.	.	.	.	.	.	.	8.gg\J)	.
8C/	.	.	.	8c/	.	.	.	.	.
8C/	.	.	.	8c/	.	4a\	.	(32ff#\LLL	.
.	.	.	.	.	.	.	.	32gg\JJ	.
.	.	.	.	.	.	.	.	8.aa\J)	.
8C/	.	.	.	8c/	.	.	.	.	.
8BB/	.	.	.	8B/	.	4dd\)	.	(32gg\LLL	.
.	.	.	.	.	.	.	.	32aa\JJ	.
.	.	.	.	.	.	.	.	8.bb\J)	.
8BB/J	.	.	.	8B/J	.	.	.	.	.
=15	=15	=15	=15	=15	=15	=15	=15	=15	=15
8C/L	.	2.r	.	8c\L	.	8.ee\L	.	8ee\L	.
8C/	.	.	.	8c\	.	.	.	16ccc\L	.
.	.	.	.	.	.	16aa\Jk	.	16aa\JJ	.
8D/	.	.	.	8d\	.	4gg\	.	4bb\	.
8D/	.	.	.	8d\	.	.	.	.	.
8DD/	.	.	.	8d\	.	4ff#\	.	4aa\	.
8DD/J	.	.	.	8d\J	.	.	.	.	.
=16	=16	=16	=16	=16	=16	=16	=16	=16	=16
4GG/	.	2.r	.	4B/	.	8gg\	.	4gg\	.
.	.	.	.	.	.	8d/L	p	.	.
4r	.	.	.	4r	.	8d/	.	4r	.
.	.	.	.	.	.	8d/	.	.	.
4r	.	.	.	4r	.	8d/	.	4r	.
.	.	.	.	.	.	8d/J	.	.	.
=17	=17	=17	=17	=17	=17	=17	=17	=17	=17
*	*	*	*	*	*	*tremolo	*	*	*
!	!LO:DY:rj:t=p.	!	!	!	!	!	!	!LO:TX:b:t=1	!
8.G\L	p	2.r	.	4b\	p	8d/L	.	2.r	.
.	.	.	.	.	.	8d/	.	.	.
16A\K	.	.	.	.	.	.	.	.	.
8.B\	.	.	.	4r	.	8d/	.	.	.
.	.	.	.	.	.	8d/	.	.	.
16c\K	.	.	.	.	.	.	.	.	.
8.d\	.	.	.	(4b\	.	8d/	.	.	.
.	.	.	.	.	.	8d/J	.	.	.
16G\Jk	.	.	.	.	.	.	.	.	.
!LO:LB:g=original	!	!LO:LB:g=original	!	!LO:LB:g=original	!	!	!	!	!
=18	=18	=18	=18	=18	=18	=18	=18	=18	=18
!	!	!	!	!	!	!	!	!	!LO:DY:rj:t=p.
4F#\	.	2.r	.	4a\)	.	8d/L	.	8.dd\L	p
.	.	.	.	.	.	8d/	.	.	.
.	.	.	.	.	.	.	.	16ee\K	.
4r	.	.	.	4r	.	8d/	.	8.ff#\	.
.	.	.	.	.	.	8d/	.	.	.
.	.	.	.	.	.	.	.	16gg\K	.
4r	.	.	.	4r	.	8d/	.	8.aa\	.
.	.	.	.	.	.	8d/J	.	.	.
.	.	.	.	.	.	.	.	16ccc\Jk	.
=19	=19	=19	=19	=19	=19	=19	=19	=19	=19
!	!LO:DY:rj:t=po.f.	!	!	!	!LO:DY:t=pof&colon;	!	!LO:DY:t=pof&colon;	!	!
8.G\L	fp	2.r	.	4b\	fp	8d/L	fp	4bb\	.
.	.	.	.	.	.	8d/	.	.	.
16A\K	.	.	.	.	.	.	.	.	.
8.B\	.	.	.	4r	.	8d/	.	4r	.
.	.	.	.	.	.	8d/	.	.	.
16c\K	.	.	.	.	.	.	.	.	.
8.d\	.	.	.	(4b\	.	8d/	.	4r	.
.	.	.	.	.	.	8d/J	.	.	.
16G\Jk	.	.	.	.	.	.	.	.	.
=20	=20	=20	=20	=20	=20	=20	=20	=20	=20
!	!	!	!	!	!	!	!	!	!LO:DY:rj:t=po fr.
4F#\	.	2.r	.	4a\)	.	8d/L	.	8.dd\L	fp
.	.	.	.	.	.	8d/	.	.	.
.	.	.	.	.	.	.	.	16ee\K	.
4r	.	.	.	4r	.	8d/	.	8.ff#\	.
.	.	.	.	.	.	8d/	.	.	.
.	.	.	.	.	.	.	.	16gg\K	.
4r	.	.	.	4r	.	8d/	.	8.aa\	.
.	.	.	.	.	.	8d/J	.	.	.
.	.	.	.	.	.	.	.	16ccc\Jk	.
*	*	*	*	*	*	*Xtremolo	*	*	*
!	!	!	!	!	!	!	!	!LO:LB:g=original	!
=21	=21	=21	=21	=21	=21	=21	=21	=21	=21
!	!LO:DY:rj:t=f.	!	!	!	!LO:DY:rj:t=f.	!	!	!	!LO:DY:rj:t=f.
8GG/L	f	2.r	.	8G/L	f	(4dd\	f	(32bb\LLL	f
.	.	.	.	.	.	.	.	32aa\JJ	.
.	.	.	.	.	.	.	.	8.gg\J)	.
8GG/	.	.	.	8G/	.	.	.	.	.
8AA/	.	.	.	8A/	.	4cc\	.	(32ff#\LLL	.
.	.	.	.	.	.	.	.	32gg\JJ	.
.	.	.	.	.	.	.	.	8.aa\J)	.
8AA/	.	.	.	8A/	.	.	.	.	.
8BB/	.	.	.	8B/	.	4dd\	.	(32gg\LLL	.
.	.	.	.	.	.	.	.	32aa\JJ	.
.	.	.	.	.	.	.	.	8.bb\J)	.
8BB/J	.	.	.	8B/J	.	.	.	.	.
=22	=22	=22	=22	=22	=22	=22	=22	=22	=22
8C/L	.	2.r	.	8c/L	.	4ee\	.	(32ee\LLL	.
.	.	.	.	.	.	.	.	32ff#\JJ	.
.	.	.	.	.	.	.	.	8.gg\J)	.
8C/	.	.	.	8c/	.	.	.	.	.
8C/	.	.	.	8c/	.	4a/	.	(32ff#\LLL	.
.	.	.	.	.	.	.	.	32gg\JJ	.
.	.	.	.	.	.	.	.	8.aa\J)	.
8C/	.	.	.	8c/	.	.	.	.	.
8BB/	.	.	.	8B/	.	4dd\)	.	(32gg\LLL	.
.	.	.	.	.	.	.	.	32aa\JJ	.
.	.	.	.	.	.	.	.	8.bb\J)	.
8BB/J	.	.	.	8B/J	.	.	.	.	.
=23	=23	=23	=23	=23	=23	=23	=23	=23	=23
!	!	!	!	!LO:TX:t=P:problem=mixed beam	!	!	!	!	!
8C/L	.	2.r	.	8c\L	.	8.ee\L	.	8ee\L	.
8C/	.	.	.	8c\	.	.	.	16ccc\L	.
.	.	.	.	.	.	16aa\Jk	.	16aa\JJ	.
8D/	.	.	.	8d\	.	4gg\	.	4bb\	.
8D/	.	.	.	8d\	.	.	.	.	.
8DD/	.	.	.	8D/	.	4ff#\	.	4aa\	.
8DD/J	.	.	.	8D/J	.	.	.	.	.
!LO:LB:g=original	!	!LO:LB:g=original	!	!	!	!	!	!	!
=24	=24	=24	=24	=24	=24	=24	=24	=24	=24
*	*	*	*	*	*	*^	*	*^	*
4GG/	.	2.r	.	4G/	.	4gg\	4ryy	.	4gg\	4ryy	.
4GG/	.	.	.	4G/	.	8.gg/L	8.b\L	.	8.gg/L	8.b\L	.
.	.	.	.	.	.	16gg/K	16b\K	.	16gg/K	16b\K	.
4GG/	.	.	.	4G/	.	8.gg/	8.b\	.	8.gg/	8.b\	.
.	.	.	.	.	.	16gg/Jk	16b\Jk	.	16gg/Jk	16b\Jk	.
!	!	!	!	!	!	!LO:LB:g=original	!	!	!	!	!
=25	=25	=25	=25	=25	=25	=25	=25	=25	=25	=25	=25
!LO:TX:t=P:problem=mixed beam	!	!	!	!	!	!	!	!	!	!	!
8.GG/L	.	4r	.	4G/	.	4gg/	4b\	.	4gg/	4b\	.
16E\Jk	.	.	.	.	.	.	.	.	.	.	.
8D/L	.	4r	.	4r	.	4r	4ryy	.	4r	4ryy	.
8C/	.	.	.	.	.	.	.	.	.	.	.
!	!	!	!	!	!	!	!	!	!	!	!LO:DY:t=p.
8BB/	.	8r	.	4r	.	4r	4ryy	.	8r	4ryy	p
8AA/J	.	8D\	Cae-	.	.	.	.	.	8dd\	.	.
!	!	!	!	!	!	!	!	!	!LO:LB:g=original	!	!
*	*	*	*	*	*	*v	*v	*	*	*	*
*	*	*	*	*	*	*	*	*v	*v	*
=26||	=26||	=26||	=26||	=26||	=26||	=26||	=26||	=26||	=26||
!LO:TX:a:t=[segno]:problem=znak segno na kresce taktowej	!	!LO:TX:a:t=[segno]:problem=znak segno na kresce taktowej	!	!LO:TX:a:t=[segno]:problem=znak segno na kresce taktowej	!	!LO:TX:a:t=[segno]:problem=znak segno na kresce taktowej	!	!LO:TX:a:t=[segno]:problem=znak segno na kresce taktowej	!
!LO:TX:t=P:problem=mixed beam	!LO:DY:rj:t=p.	!	!	!	!	!	!	!	!LO:DY:t=p.
8GG/L	p	4G\	-les-	[2.d\	p	16b/LL	p	4gg\	p
.	.	.	.	.	.	16d/	.	.	.
8G\	.	.	.	.	.	16b/	.	.	.
.	.	.	.	.	.	16d/JJ	.	.	.
8G\	.	4.B\	-ti	.	.	16b/LL	.	4.bb\	.
.	.	.	.	.	.	16d/	.	.	.
8G\	.	.	.	.	.	16b/	.	.	.
.	.	.	.	.	.	16d/JJ	.	.	.
8G\	.	.	.	.	.	16b/LL	.	.	.
.	.	.	.	.	.	16d/	.	.	.
8G\J	.	8c\	sa-	.	.	16b/	.	8ccc\	.
.	.	.	.	.	.	16d/JJ	.	.	.
!	!	!	!	!	!	!	!	!LO:LB:g=original	!
=27	=27	=27	=27	=27	=27	=27	=27	=27	=27
!	!	!	!	!	!	!LO:TX:b:t=Segue	!	!	!
8F#\L	.	4d\	-cra-	2.d\]	.	2.a 2.d/	.	4ddd\	.
8F#\	.	.	.	.	.	.	.	.	.
8F#\	.	4D/	-te	.	.	.	.	4dd\	.
8F#\	.	.	.	.	.	.	.	.	.
8F#\	.	8r	.	.	.	.	.	8r	.
8F#\J	.	8D/	spes	.	.	.	.	8dd\	.
!	!	!	!	!LO:LB:g=original	!	!	!	!	!
=28	=28	=28	=28	=28	=28	=28	=28	=28	=28
8E\L	.	4E\	ves-	[>2.B/	.	2.g 2.B/	.	4ee\	.
8E\	.	.	.	.	.	.	.	.	.
8E\	.	4.G\	-traſ	.	.	.	.	4.gg\	.
8E\	.	.	.	.	.	.	.	.	.
8E\	.	.	.	.	.	.	.	.	.
8E\J	.	8A\	a-	.	.	.	.	8aa\	.
!LO:PB:g=original	!	!LO:PB:g=original	!	!	!	!	!	!	!
=29	=29	=29	=29	=29	=29	=29	=29	=29	=29
*2\right	*	*	*	*	*	*	*	*	*
*tremolo	*	*	*	*	*	*	*	*	*
8D\L	.	4B\	-mo-	2.B/]	.	2.f# 2.B/	.	4bb\	.
8D\	.	.	.	.	.	.	.	.	.
8D\	.	4BB/	-ri	.	.	.	.	4b\	.
8D\	.	.	.	.	.	.	.	.	.
8D\	.	8r	.	.	.	.	.	8r	.
8D\J	.	8BB/	speſ	.	.	.	.	8b\	.
=30	=30	=30	=30	=30	=30	=30	=30	=30	=30
8C/L	.	4C/	ves-	[>2.G/	.	2.e 2.G/	.	4cc\	.
8C/	.	.	.	.	.	.	.	.	.
8C/	.	4.E\	-traſ	.	.	.	.	4.ee\	.
8C/	.	.	.	.	.	.	.	.	.
8C/	.	.	.	.	.	.	.	.	.
8C/J	.	8F#\	a-	.	.	.	.	8ff#\	.
=31	=31	=31	=31	=31	=31	=31	=31	=31	=31
8BB/L	.	4G\	-mo-	2.G/]	.	2.d 2.G/	.	4gg\	.
8BB/	.	.	.	.	.	.	.	.	.
8BB/	.	4B\	-ri	.	.	.	.	4bb\	.
8BB/	.	.	.	.	.	.	.	.	.
8BB/	.	4d\	speſ	.	.	.	.	4ddd\	.
8BB/J	.	.	.	.	.	.	.	.	.
*Xtremolo	*	*	*	*	*	*	*	*	*
=32	=32	=32	=32	=32	=32	=32	=32	=32	=32
!LO:TX:t=P:problem=mixed beam	!	!	!	!	!	!	!	!	!
8AA/L	.	4c\	ves-	2A/	.	2e 2A/	.	4ccc\	.
8AA/	.	.	.	.	.	.	.	.	.
8AA/	.	4.AA/	-traſ	.	.	.	.	4aa\	.
8AA/	.	.	.	.	.	.	.	.	.
8F#\	.	.	.	4d\	.	16d/LL	.	8r	.
.	.	.	.	.	.	16A/	.	.	.
8F#\J	.	8c\	a-	.	.	16d/	.	8ccc\	.
.	.	.	.	.	.	16A/JJ	.	.	.
=33	=33	=33	=33	=33	=33	=33	=33	=33	=33
!LO:TX:t=P:problem=mixed beam	!	!	!	!	!	!	!	!	!
8G\L	.	8.B\L	-mo-	8d/L	.	4B/	.	(32bb\LLL	.
.	.	.	.	.	.	.	.	32aa\JJ	.
.	.	.	.	.	.	.	.	8.gg\J)	.
8GG/	.	.	.	8B/	.	.	.	.	.
.	.	16A\Jk	.	.	.	.	.	.	.
8GG/	.	4G\	-ri	8B/	.	8dd\L	.	8dd\L	.
8GG/	.	.	.	8B/	.	8b\J	.	8b\J	.
8G\	.	8r	.	8B/	.	4g|>/	.	4g|/	.
8G\J	.	8B\	e-	8B/J	.	.	.	.	.
!LO:LB:g=original	!	!LO:LB:g=original	!	!	!	!	!	!LO:LB:g=original	!
=34	=34	=34	=34	=34	=34	=34	=34	=34	=34
*tremolo	*	*	*	*	*	*	*	*	*
8C#X/L	.	4A\	-ius-	8A/L	.	8ee\L	.	8aa\L	.
8C#/	.	.	.	8A/	.	8ee\	.	8aa\	.
8C#/	.	4.A\	-dem	8A/	.	8ee\	.	8aa\	.
8C#/	.	.	.	8A/	.	8ee\	.	8aa\	.
8C#/	.	.	.	8A/	.	8ee\	.	8aa\	.
8C#/J	.	8A\	ho-	8A/J	.	8ee\J	.	8aa\J	.
=35	=35	=35	=35	=35	=35	=35	=35	=35	=35
*	*	*	*	*	*	*2\right	*	*	*
*	*	*	*	*	*	*tremolo	*	*	*
8D\L	.	8.F#\L	-no-	8A/L	.	8ff#\L	.	8aa\L	.
8D\	.	.	.	8A/	.	8ff#\	.	8aa\	.
.	.	16G\Jk	.	.	.	.	.	.	.
8D\	.	4A\	-ri	8A/	.	8ff#\	.	8aa\	.
8D\	.	.	.	8A/	.	8ff#\	.	8aa\	.
8D\	.	8r	.	8A/	.	8ff#\	.	8aa\	.
8D\J	.	8A\	ve-	8A/J	.	8ff#\J	.	8aa\J	.
!	!	!	!	!	!	!LO:LB:g=original	!	!	!
=36	=36	=36	=36	=36	=36	=36	=36	=36	=36
8C#X/L	.	4A\	-xil-	8A/L	.	8ee\L	.	8aa\L	.
8C#/	.	.	.	8A/	.	8ee\	.	8aa\	.
8C#/	.	4E\	-la	8A/	.	8ee\	.	8aa\	.
8C#/	.	.	.	8A/	.	8ee\	.	8aa\	.
8C#/	.	4G\	di-	8A/	.	8ee\	.	8gg\	.
8C#/J	.	.	.	8A/J	.	8ee\J	.	8gg\J	.
*Xtremolo	*	*	*	*	*	*Xtremolo	*	*	*
=37	=37	=37	=37	=37	=37	=37	=37	=37	=37
4D\	.	8F#\L	-ca-	4A/	.	4dd\	.	4ff#\	.
.	.	16D\L	.	.	.	.	.	.	.
.	.	16E\JJ	.	.	.	.	.	.	.
4r	.	8F#\L	.	4r	.	4r	.	4r	.
.	.	8G\J	.	.	.	.	.	.	.
4D\	.	8A\L	.	4a\	.	(4dd\	.	(4ff#\	.
.	.	8d\J	.	.	.	.	.	.	.
!LO:LB:g=original	!	!LO:LB:g=original	!	!LO:LB:g=original	!	!	!	!	!
=38	=38	=38	=38	=38	=38	=38	=38	=38	=38
!	!	!LO:TX:t=P:problem=mixed beam	!	!	!	!	!	!	!
4AA/	.	8c#X'\L	.	4a\	.	4cc#X\)	.	4ee\)	.
.	.	16AA/L	.	.	.	.	.	.	.
.	.	16BB/JJ	.	.	.	.	.	.	.
4r	.	8C#X/L	.	4r	.	4r	.	4r	.
.	.	8D/J	.	.	.	.	.	.	.
4AA/	.	8E\L	.	(4c#X\	.	(4ee\	.	(4gg\	.
.	.	8G\J	.	.	.	.	.	.	.
=39	=39	=39	=39	=39	=39	=39	=39	=39	=39
4D\	.	8F#|\L	.	4d\)	.	4dd\)	.	4ff#\)	.
.	.	16D\L	.	.	.	.	.	.	.
.	.	16E\JJ	.	.	.	.	.	.	.
4r	.	8F#\L	.	4r	.	4r	.	4r	.
.	.	8G\J	.	.	.	.	.	.	.
4D\	.	8A\L	.	4a\	.	(4dd\	.	(4ff#\	.
.	.	8d\J	.	.	.	.	.	.	.
=40	=40	=40	=40	=40	=40	=40	=40	=40	=40
!	!	!LO:TX:t=P:problem=mixed beam	!	!	!	!	!	!	!
4AA/	.	8c#X|\L	.	4a\	.	4cc#X\)	.	4ee\)	.
.	.	16AA/L	.	.	.	.	.	.	.
.	.	16BB/JJ	.	.	.	.	.	.	.
4r	.	8C#X/L	.	4r	.	4r	.	4r	.
.	.	8D/J	.	.	.	.	.	.	.
4AA/	.	8E\L	.	(4c#X\	.	(4ee\	.	(4gg\	.
.	.	8G\J	.	.	.	.	.	.	.
!	!	!	!	!	!	!	!	!LO:LB:g=original	!
=41	=41	=41	=41	=41	=41	=41	=41	=41	=41
(4D/	.	8F#\L	.	4d\)	.	2dd\)	.	8ff#\L)	.
.	.	16G\L	.	.	.	.	.	16gg\L	.
.	.	16A\JJ	.	.	.	.	.	16aa\JJ	.
4BB/	.	8G\L	.	2g\	.	.	.	8gg\L	.
.	.	8F#\	.	.	.	.	.	8ff#\	.
4GG/)	.	8E\	.	.	.	4b\	.	8ee\	.
.	.	8D\J	.	.	.	.	.	8dd\J	.
!LO:LB:g=original	!	!LO:LB:g=original	!	!	!	!	!	!	!
=42	=42	=42	=42	=42	=42	=42	=42	=42	=42
!LO:TX:t=P:problem=mixed beam	!	!	!	!	!	!	!	!	!
8AA/L	.	4A\	.	8e\L	.	8a 8e 8c#X/	.	8aa 8cc#X 8e/	.
8A\	.	.	.	16c#X\L	.	16a\LL	.	16a/LL	.
.	.	.	.	16d\JJ	.	16b\JJ	.	16b/JJ	.
8A\	.	4AA/	-te	8e\L	.	8cc#X\L	.	8cc#X\L	.
8G\	.	.	.	8c#X\J	.	8ee\J	.	8ee\J	.
8F#\	.	8r	.	8d\L	.	8dd\L	.	8dd\L	.
8E\J	.	8A\	e-	8f#\J	.	8aa\J	.	8aa\J	.
=43	=43	=43	=43	=43	=43	=43	=43	=43	=43
*tremolo	*	*	*	*	*	*	*	*	*
8G\L	.	4B\	-ius-	8B\L	.	8b\L	.	8b\L	.
8G\	.	.	.	16d\L	.	16bb\L	.	16bb\L	.
.	.	.	.	16c#X\JJ	.	16aa\JJ	.	16aa\JJ	.
8G\	.	4.B\	-dem	8B\L	.	8gg\L	.	8gg\L	.
8G\	.	.	.	8d\	.	8bb\J	.	8bb\J	.
8G\	.	.	.	8g\	.	8b\L	.	8b\L	.
8G\J	.	8c#X\	ho-	8e\J	.	8cc#X\J	.	8cc#X\J	.
!	!	!	!	!	!	!LO:LB:g=original	!	!	!
=44	=44	=44	=44	=44	=44	=44	=44	=44	=44
*	*	*	*	*Xtuplet	*	*	*	*	*
8F#\L	.	4d\	-no-	12d\L	.	8dd\L	.	8dd\L	.
.	.	.	.	12a\	.	.	.	.	.
8F#\	.	.	.	.	.	16ff#\L	.	16ff#\L	.
.	.	.	.	12g\J	.	.	.	.	.
.	.	.	.	.	.	16ee\JJ	.	16ee\JJ	.
8F#\	.	4D/	-ri	8f#\L	.	8dd\L	.	8dd\L	.
8F#\	.	.	.	8a\J	.	8ff#\J	.	8ff#\J	.
8F#\	.	8r	.	8d\L	.	8a\L	.	8a\L	.
8F#\J	.	8D/	ve-	8a\J	.	8dd\J	.	8dd\J	.
=45	=45	=45	=45	=45	=45	=45	=45	=45	=45
!	!	!	!	!	!	!LO:TX:t=P:problem=mixed beam	!	!LO:TX:t=P:problem=mixed beam	!
8C#X/L	.	4AA/	-xil-	8e\L	.	8A/L	.	8A/L	.
8C#/	.	.	.	8e\	.	16gg\L	.	16gg\L	.
.	.	.	.	.	.	16ff#\JJ	.	16ff#\JJ	.
8C#/	.	4.E\	-la	8e\	.	8ee\L	.	8ee\L	.
8C#/	.	.	.	8e\	.	8gg\J	.	8gg\J	.
8C#/	.	.	.	8e\	.	8a\L	.	8a\L	.
8C#/J	.	8G\	di-	8e\J	.	8gg\J	.	8gg\J	.
*Xtremolo	*	*	*	*	*	*	*	*	*
!LO:LB:g=original	!	!LO:LB:g=original	!	!LO:LB:g=original	!	!	!	!LO:LB:g=original	!
=46	=46	=46	=46	=46	=46	=46	=46	=46	=46
4D\	.	8F#\L	-ca-	4d\	.	8ff#\L	.	8ff#\L	.
.	.	16d\L	.	.	.	16dd\L	.	16dd\L	.
.	.	16c#X\JJ	.	.	.	16cc#X\JJ	.	16cc#X\JJ	.
8r	.	8d\L	.	8r	.	8dd\L	.	8dd\L	.
8G\L	.	8B\	.	8g\L	.	8b\	.	8b\	.
8F#\	.	8A\	.	8f#\	.	8a\	.	8a\	.
8E\J	.	8G\J	.	8e\J	.	8g\J	.	8g\J	.
=47	=47	=47	=47	=47	=47	=47	=47	=47	=47
4F#\	.	8A\L	.	4f#\	.	8a\L	.	8a\L	.
.	.	16d\L	.	.	.	16dd\L	.	16dd\L	.
.	.	16c#X\JJ	.	.	.	16cc#X\JJ	.	16cc#X\JJ	.
8r	.	8d\L	.	8r	.	8dd\L	.	8dd\L	.
8F#\L	.	8A\	.	8f#\L	.	8a\	.	8a\	.
8E\	.	8G\	.	8e\	.	8g\	.	8g\	.
8D\J	.	8F#\J	.	8d\J	.	8f#\J	.	8f#\J	.
=48	=48	=48	=48	=48	=48	=48	=48	=48	=48
4E\	.	8G\L	.	4e\	.	8g\L	.	8g\L	.
.	.	16d\L	.	.	.	16dd\L	.	16dd\L	.
.	.	16c#X\JJ	.	.	.	16cc#X\JJ	.	16cc#X\JJ	.
8r	.	8d\L	.	8r	.	8dd/L	.	8dd/L	.
8E\L	.	8G\	.	8e\L	.	8g/	.	8g/	.
8D\	.	8F#\	.	8d\	.	8f#/	.	8f#/	.
8C#X\J	.	8E\J	.	8c#X\J	.	8e/J	.	8e/J	.
=49	=49	=49	=49	=49	=49	=49	=49	=49	=49
8D\L	.	4F#\	.	8d\L	.	(8f#\L	.	8f#\L	.
8D\	.	.	.	8d\	.	8dd\	.	8dd\	.
8E\	.	4G\	-te	8e\	.	8g\)	.	8g\	.
8E\	.	.	.	8e\	.	(8dd\	.	8dd\	.
8F#\	.	4A\	ve-	8f#\	.	8a\	.	8a\	.
8F#\J	.	.	.	8f#\J	.	8dd\J)	.	8dd\J	.
!LO:PB:g=original	!	!LO:PB:g=original	!	!	!	!	!	!	!
=50	=50	=50	=50	=50	=50	=50	=50	=50	=50
!	!LO:DY:rj:t=po.f.	!	!	!	!LO:DY:t=pof&colon;	!	!LO:DY:t=pof&colon;	!	!LO:DY:rj:t=pof.
8G\L	fp	4B\	-xil-	8g\L	fp	(32b\LLL	fp	(32b\LLL	fp
.	.	.	.	.	.	32cc#X\JJ	.	32cc#X\JJ	.
.	.	.	.	.	.	8.dd\J)	.	8.dd\J)	.
8G\	.	.	.	8g\	.	.	.	.	.
8G\	.	4c#X\	-la	8g\	.	(32cc#\LLL	.	(32cc#\LLL	.
.	.	.	.	.	.	32dd\JJ	.	32dd\JJ	.
.	.	.	.	.	.	8.ee\J)	.	8.ee\J)	.
8G\	.	.	.	8g\	.	.	.	.	.
8F#\	.	4d\	di-	8f#\	.	(32dd\LLL	.	(32dd\LLL	.
.	.	.	.	.	.	32ee\JJ	.	32ee\JJ	.
.	.	.	.	.	.	8.ff#\J)	.	8.ff#\J)	.
8F#\J	.	.	.	8f#\J	.	.	.	.	.
!	!	!	!	!	!	!LO:LB:g=original	!	!LO:LB:g=original	!
=51	=51	=51	=51	=51	=51	=51	=51	=51	=51
!LO:TX:t=P:problem=mixed beam	!LO:DY:t=f.	!	!	!	!	!	!	!	!
8G\L	f	8.G\L	-ca-	8g\L	.	8b\L	f	8b\L	.
!	!	!	!	!	!	!	!	!	!LO:DY:rj:t=f.
8G\	.	.	.	8g\J	.	16gg\L	.	16bb\L	f
.	.	16B\Jk	.	.	.	16ee\JJ	.	16gg\JJ	.
8A\	.	4A\	.	8a\L	.	4dd\	.	4ff#\	.
8A\	.	.	.	8a\	.	.	.	.	.
8AA\	.	4AA/	.	8a\	.	4cc#X\	.	4ee\	.
8AA\J	.	.	.	8a\J	.	.	.	.	.
=52	=52	=52	=52	=52	=52	=52	=52	=52	=52
*tremolo	*	*	*	*	*	*	*	*	*
!	!	!	!	!LO:TX:b:t=ten&colon;	!	!	!	!	!LO:DY:t=pno&colon;
8D\L	.	4D\	-te.	2.f#\	.	16dd\LL	.	4dd\	p
.	.	.	.	.	.	16a\	.	.	.
8D\	.	.	.	.	.	16dd\	.	.	.
.	.	.	.	.	.	16a\JJ	.	.	.
*	*	*	*	*	*	*tremolo	*	*	*
8D\	.	4r	.	.	.	16ddLL 16a\	.	4.ff#\	.
.	.	.	.	.	.	16dd 16a\	.	.	.
8D\	.	.	.	.	.	16dd 16a\	.	.	.
.	.	.	.	.	.	16dd 16a\	.	.	.
8D\	.	4r	.	.	.	16dd 16a\	.	.	.
.	.	.	.	.	.	16dd 16a\	.	.	.
8D\J	.	.	.	.	.	16dd 16a\	.	8gg\	.
.	.	.	.	.	.	16ddJJ 16a\	.	.	.
=53	=53	=53	=53	=53	=53	=53	=53	=53	=53
8C#X/L	.	2.r	.	2.e\	.	16eeLL 16a\	.	4aa\	.
.	.	.	.	.	.	16ee 16a\	.	.	.
8C#/	.	.	.	.	.	16ee 16a\	.	.	.
.	.	.	.	.	.	16ee 16a\	.	.	.
8C#/	.	.	.	.	.	16ee 16a\	.	4a/	.
.	.	.	.	.	.	16ee 16a\	.	.	.
8C#/	.	.	.	.	.	16ee 16a\	.	.	.
.	.	.	.	.	.	16ee 16a\	.	.	.
8C#/	.	.	.	.	.	16ee 16a\	.	8r	.
.	.	.	.	.	.	16ee 16a\	.	.	.
8C#/J	.	.	.	.	.	16ee 16a\	.	8a/	.
.	.	.	.	.	.	16eeJJ 16a\	.	.	.
=54	=54	=54	=54	=54	=54	=54	=54	=54	=54
8B\L	.	2.r	.	[2.f#\	.	16ddLL 16f#/	.	4b\	.
.	.	.	.	.	.	16dd 16f#/	.	.	.
8B\	.	.	.	.	.	16dd 16f#/	.	.	.
.	.	.	.	.	.	16dd 16f#/	.	.	.
8B\	.	.	.	.	.	16dd 16f#/	.	4.dd\	.
.	.	.	.	.	.	16dd 16f#/	.	.	.
8B\	.	.	.	.	.	16dd 16f#/	.	.	.
.	.	.	.	.	.	16dd 16f#/	.	.	.
8B\	.	.	.	.	.	16dd 16f#/	.	.	.
.	.	.	.	.	.	16dd 16f#/	.	.	.
8B\J	.	.	.	.	.	16dd 16f#/	.	8ee\	.
.	.	.	.	.	.	16ddJJ 16f#/	.	.	.
*	*	*	*	*	*	*Xtremolo	*	*	*
=55	=55	=55	=55	=55	=55	=55	=55	=55	=55
8A\L	.	2.r	.	2.f#\]	.	16cc#X/LL	.	4ff#\	.
.	.	.	.	.	.	16f#/	.	.	.
8A\	.	.	.	.	.	16cc#/	.	.	.
.	.	.	.	.	.	16f#/JJ	.	.	.
*	*	*	*	*	*	*tremolo	*	*	*
8A\	.	.	.	.	.	16cc#LL 16f#/	.	4f#/	.
.	.	.	.	.	.	16cc# 16f#/	.	.	.
8A\	.	.	.	.	.	16cc# 16f#/	.	.	.
.	.	.	.	.	.	16cc# 16f#/	.	.	.
8A\	.	.	.	.	.	16cc# 16f#/	.	8r	.
.	.	.	.	.	.	16cc# 16f#/	.	.	.
8A\J	.	.	.	.	.	16cc# 16f#/	.	8f#/	.
.	.	.	.	.	.	16cc#JJ 16f#/	.	.	.
*Xtremolo	*	*	*	*	*	*	*	*	*
!LO:LB:g=original	!	!LO:LB:g=original	!	!LO:LB:g=original	!	!	!	!	!
=56	=56	=56	=56	=56	=56	=56	=56	=56	=56
8G\L	.	2.r	.	[2.d\	.	16bLL 16d/	.	4g/	.
.	.	.	.	.	.	16b 16d/	.	.	.
8G\	.	.	.	.	.	16b 16d/	.	.	.
.	.	.	.	.	.	16b 16d/	.	.	.
8G\	.	.	.	.	.	16b 16d/	.	4.b/	.
.	.	.	.	.	.	16b 16d/	.	.	.
8G\	.	.	.	.	.	16b 16d/	.	.	.
.	.	.	.	.	.	16b 16d/	.	.	.
8G\	.	.	.	.	.	16b 16d/	.	.	.
.	.	.	.	.	.	16b 16d/	.	.	.
8G\J	.	.	.	.	.	16b 16d/	.	8cc#X\	.
.	.	.	.	.	.	16bJJ 16d/	.	.	.
!	!	!	!	!	!	!	!	!LO:LB:g=original	!
=57	=57	=57	=57	=57	=57	=57	=57	=57	=57
*tremolo	*	*	*	*	*	*	*	*	*
8F#\L	.	2.r	.	2.d\]	.	16aLL 16d/	.	4dd\	.
.	.	.	.	.	.	16a 16d/	.	.	.
8F#\	.	.	.	.	.	16a 16d/	.	.	.
.	.	.	.	.	.	16a 16d/	.	.	.
8F#\	.	.	.	.	.	16a 16d/	.	4ff#\	.
.	.	.	.	.	.	16a 16d/	.	.	.
8F#\	.	.	.	.	.	16a 16d/	.	.	.
.	.	.	.	.	.	16a 16d/	.	.	.
8F#\	.	.	.	.	.	16a 16d/	.	4aa\	.
.	.	.	.	.	.	16a 16d/	.	.	.
8F#\J	.	.	.	.	.	16a 16d/	.	.	.
.	.	.	.	.	.	16aJJ 16d/	.	.	.
*	*	*	*	*	*	*Xtremolo	*	*	*
=58	=58	=58	=58	=58	=58	=58	=58	=58	=58
8E\L	.	2.r	.	4e\	.	4b\	.	4gg\	.
8E\	.	.	.	.	.	.	.	.	.
8E\	.	.	.	4g\	.	2cc#X\	.	4ee\	.
8E\	.	.	.	.	.	.	.	.	.
8E\	.	.	.	4e\	.	.	.	8r	.
8E\J	.	.	.	.	.	.	.	8gg\	.
=59	=59	=59	=59	=59	=59	=59	=59	=59	=59
*	*	*	*	*	*	*	*	*^	*
8D\L	.	4r	.	8d\L	.	4dd\	.	4ff#\	4ryy	.
8D\	.	.	.	8d\	.	.	.	.	.	.
*	*	*	*	*	*	*^	*	*	*	*
8D\	.	4r	.	8d\	.	8.ff#/L	8.a\L	.	8.ff#/L	8.a\L	.
8D\	.	.	.	8d\	.	.	.	.	.	.	.
.	.	.	.	.	.	16ff#/K	16a\K	.	16ff#/K	16a\K	.
8D\	.	8r	.	8d\	.	8.ff#/	8.a\	.	8.ff#/	8.a\	.
8D\J	.	8d\	Cae-	8d\J	.	.	.	.	.	.	.
.	.	.	.	.	.	16ff#/Jk	16a\Jk	.	16ff#/Jk	16a\Jk	.
=60	=60	=60	=60	=60	=60	=60	=60	=60	=60	=60	=60
!	!LO:DY:rj:t=p.	!	!	!	!	!	!	!	!	!	!LO:DY:t=p.
8D\L	p	4d\	-les-	8d\L	p	8ff#/	8a\	p	8ff#/	8a\	p
8D\	.	.	.	8d\	.	16aa\LL	8ryy	.	16aa\LL	8ryy	.
.	.	.	.	.	.	16gg\JJ	.	.	16gg\JJ	.	.
8D\	.	4.D/	-ti	8d\	.	8ff#\L	4ryy	.	8ff#\L	4ryy	.
8D\	.	.	.	8d\	.	8aa\	.	.	8aa\	.	.
8D\	.	.	.	8d\	.	8dd\	4ryy	.	8dd\	4ryy	.
8D\J	.	8d\	sa-	8d\J	.	8aa\J	.	.	8aa\J	.	.
*	*	*	*	*	*	*v	*v	*	*	*	*
*	*	*	*	*	*	*	*	*v	*v	*
!	!	!	!	!	!	!LO:LB:g=original	!	!	!
=61	=61	=61	=61	=61	=61	=61	=61	=61	=61
8D\L	.	4c\	-cra-	8d\L	.	8r	.	8r	.
8D\	.	.	.	8d\	.	16aa\LL	.	16aa\LL	.
.	.	.	.	.	.	16gg\JJ	.	16gg\JJ	.
8D\	.	4c\	-te	8d\	.	8ff#\L	.	8ff#\L	.
8D\	.	.	.	8d\	.	8aa\J	.	8aa\J	.
8D\	.	8r	.	8d\	.	8cc\L	.	8cc\L	.
8D\J	.	8c\	speſ	8d\J	.	8aa\J	.	8aa\J	.
!LO:LB:g=original	!	!LO:LB:g=original	!	!	!	!	!	!LO:PB:g=original	!
=62	=62	=62	=62	=62	=62	=62	=62	=62	=62
8D\L	.	4D\	ves-	8d\L	.	8r	.	8r	.
8D\	.	.	.	8d\	.	16aa\LL	.	16aa\LL	.
.	.	.	.	.	.	16gg\JJ	.	16gg\JJ	.
8D\	.	4.A\	-traſ	8d\	.	8ff#\L	.	8ff#\L	.
8D\	.	.	.	8d\	.	8aa\	.	8aa\	.
8D\	.	.	.	8d\	.	8cc\	.	8cc\	.
8D\J	.	8c\	a-	8d\J	.	8aa\J	.	8aa\J	.
=63	=63	=63	=63	=63	=63	=63	=63	=63	=63
8G\L	.	4B\	-mo-	8g\L	.	8r	.	8r	.
8G\	.	.	.	8g\	.	16dd\LL	.	16bb\LL	.
.	.	.	.	.	.	16cc\JJ	.	16aa\JJ	.
8G\	.	4B\	-ri	8g\	.	8b\L	.	8gg\L	.
8G\	.	.	.	8g\	.	8dd\J	.	8bb\J	.
8G\	.	8r	.	8g\	.	8b\L	.	8dd\L	.
8G\J	.	8B\	speſ	8g\J	.	8gg\J	.	8bb\J	.
*Xtremolo	*	*	*	*	*	*	*	*	*
=64	=64	=64	=64	=64	=64	=64	=64	=64	=64
4G\	.	4B\	ves-	4g\	.	4gg\	.	(4bb\	.
2E\	.	8c\L	-traſ	2e\	.	2gg\	.	4ccc\	.
.	.	8B\J	.	.	.	.	.	.	.
.	.	8A\L	a-	.	.	.	.	4ccc#X\)	.
.	.	8G\J	.	.	.	.	.	.	.
=65	=65	=65	=65	=65	=65	=65	=65	=65	=65
!LO:TX:t=P:problem=mixed beam	!	!	!	!LO:TX:t=P:problem=mixed beam	!	!LO:TX:t=P:problem=mixed beam	!	!LO:TX:t=P:problem=mixed beam	!
8D\L	.	4d\	-mo-	8d\L	.	8ff#\L	.	8ddd\L	.
8DD/	.	.	.	8D/	.	16d/L	.	16d/L	.
.	.	.	.	.	.	16e/JJ	.	16e/JJ	.
8DD/	.	4D/	-ri	8D/	.	8d/L	.	8d/L	.
8DD/J	.	.	.	8D/J	.	8d/J	.	8d/J	.
4DD|/	.	8r	.	4D/	.	4d|>/	.	4d|/	.
.	.	8d\	e-	.	.	.	.	.	.
!	!	!	!	!LO:LB:g=original	!	!	!	!	!
=66	=66	=66	=66	=66	=66	=66	=66	=66	=66
*tremolo	*	*	*	*	*	*	*	*	*
!	!	!	!	!LO:TX:b:t=ten&colon;	!	!	!	!	!
8G#X\L	.	4E\	-ius-	[2.e\	.	8b/L	.	8ee\L	.
8G#\	.	.	.	.	.	8b/	.	8ee\	.
8G#\	.	4.B\	-dem	.	.	8b/	.	8ee\	.
8G#\	.	.	.	.	.	8b/	.	8ee\	.
8G#\	.	.	.	.	.	8b/	.	8dd\	.
8G#\J	.	8d\	ho-	.	.	8b/J	.	8dd\J	.
!LO:LB:g=original	!	!LO:LB:g=original	!	!	!	!	!	!	!
=67	=67	=67	=67	=67	=67	=67	=67	=67	=67
*	*	*	*	*	*	*	*	*2\right	*
*	*	*	*	*	*	*tremolo	*	*tremolo	*
8A\L	.	8.c\L	-no-	2.e\]	.	8a/L	.	8cc\L	.
8A\	.	.	.	.	.	8a/	.	8cc\	.
.	.	16B\Jk	.	.	.	.	.	.	.
8A\	.	4A\	-ri	.	.	8a/	.	8cc\	.
8A\	.	.	.	.	.	8a/	.	8cc\	.
8A\	.	8r	.	.	.	8a/	.	8cc\	.
8A\J	.	8A\	ve-	.	.	8a/J	.	8cc\J	.
=68	=68	=68	=68	=68	=68	=68	=68	=68	=68
8F#\L	.	4D\	-xil-	[2.d\	.	8a/L	.	8dd\L	.
8F#\	.	.	.	.	.	8a/	.	8dd\	.
8F#\	.	8d\L	-la	.	.	8a/	.	8dd\	.
8F#\	.	8c\J	.	.	.	8a/	.	8dd\	.
8F#\	.	8B\L	di-	.	.	8a/	.	8dd\	.
8F#\J	.	8A\J	.	.	.	8a/J	.	8dd\J	.
!	!	!	!	!	!	!LO:LB:g=original	!	!	!
=69	=69	=69	=69	=69	=69	=69	=69	=69	=69
8G\L	.	4B\	-ca-	2.d\]	.	8b\L	.	8dd\L	.
8G\	.	.	.	.	.	8b\	.	8dd\	.
8G\	.	4G\	-te	.	.	8b\	.	8dd\	.
8G\	.	.	.	.	.	8b\	.	8dd\	.
8G\	.	8r	.	.	.	8b\	.	8dd\	.
8G\J	.	8d\	ve-	.	.	8b\J	.	8dd\J	.
!	!	!	!	!	!	!	!	!LO:LB:g=original	!
=70	=70	=70	=70	=70	=70	=70	=70	=70	=70
8BB/L	.	8d\L	-xil-	8d\L	.	8g/L	.	8dd\L	.
8BB/	.	8B\J	.	8d\	.	8g/	.	8dd\	.
8BB/	.	4G\	-la	8d\	.	8g/	.	8dd\	.
8BB/	.	.	.	8d\	.	8g/	.	8dd\	.
8BB/	.	4D\	di-	8d\	.	8g/	.	8dd\	.
8BB/J	.	.	.	8d\J	.	8g/J	.	8dd\J	.
*Xtremolo	*	*	*	*	*	*Xtremolo	*	*Xtremolo	*
=71	=71	=71	=71	=71	=71	=71	=71	=71	=71
!	!LO:DY:t=f.	!	!	!	!	!	!	!	!LO:DY:t=f.
8C/	f	8E\L	-ca-	8c/	f	8cc\	f	8ee\	f
!	!LO:DY:t=p.	!	!	!	!	!	!	!	!LO:DY:t=p.
8C/L	p	16A\L	.	8c/L	p	8ee\L	p	8aa\L	p
.	.	16G\JJ	.	.	.	.	.	.	.
8C/	.	8A\L	.	8c/	.	8ee\	.	8aa\	.
8C/	.	8G\	.	8c/	.	8ee\	.	8aa\	.
8C/	.	8F#\	.	8c/	.	8ee\	.	8aa\	.
8C/J	.	8E\J	.	8c/J	.	8ee\J	.	8aa\J	.
!LO:LB:g=original	!	!LO:LB:g=original	!	!	!	!	!	!	!
=72	=72	=72	=72	=72	=72	=72	=72	=72	=72
!	!LO:DY:t=f.	!	!	!	!	!	!	!	!LO:DY:t=f.
8D\	f	8F#\L	.	8d\	f	8ff#\	f	8aa\	f
!	!LO:DY:t=p.	!	!	!	!	!	!	!	!LO:DY:t=p.
8D\L	p	16B\L	.	8d\L	p	8ff#\L	p	8bb\L	p
.	.	16A\JJ	.	.	.	.	.	.	.
8D\	.	8B\L	.	8d\	.	8ff#\	.	8bb\	.
8D\	.	8A\	.	8d\	.	8ff#\	.	8bb\	.
8D\	.	8G\	.	8d\	.	8ff#\	.	8bb\	.
8D\J	.	8F#\J	.	8d\J	.	8ff#\J	.	8bb\J	.
=73	=73	=73	=73	=73	=73	=73	=73	=73	=73
!	!LO:DY:t=f.	!	!	!	!	!	!	!	!LO:DY:t=f.
8E\	f	8G\L	.	8e\	f	8gg\	f	8bb\	f
!	!LO:DY:t=p.	!	!	!	!	!	!	!	!LO:DY:t=p.
8E\L	p	16c\L	.	8e\L	p	8gg\L	p	8ccc\L	p
.	.	16B\JJ	.	.	.	.	.	.	.
8E\	.	8c\L	.	8e\	.	8gg\	.	8ccc\	.
8E\	.	8B\	.	8e\	.	8gg\	.	8ccc\	.
8E\	.	8A\	.	8e\	.	8gg\	.	8ccc\	.
8E\J	.	8G\J	.	8e\J	.	8gg\J	.	8ccc\J	.
=74	=74	=74	=74	=74	=74	=74	=74	=74	=74
!	!LO:DY:t=f.	!	!	!	!	!	!	!	!LO:DY:t=f.
8F#\	f	8A\L	.	8f#\	f	8aa\	f	8ccc\	f
!	!LO:DY:t=p.	!	!	!	!	!	!	!	!LO:DY:t=p.
8F#\L	p	16d\L	.	8f#\L	p	8aa\L	p	8ddd\L	p
.	.	16c\JJ	.	.	.	.	.	.	.
8F#\	.	8d\L	.	8f#\	.	8aa\	.	8ddd\	.
8F#\	.	8c\	.	8f#\	.	8aa\	.	8ddd\	.
8F#\	.	8B\	.	8f#\	.	8aa\	.	8ddd\	.
8F#\J	.	8A\J	.	8f#\J	.	8aa\J	.	8ccc\J	.
!	!	!	!	!LO:LB:g=original	!	!	!	!	!
=75	=75	=75	=75	=75	=75	=75	=75	=75	=75
8G\L	.	4B\	.	8g\L	.	8bb\L	.	8bb\L	.
8G\	.	.	.	8g\	.	8gg\	.	8gg\	.
8A\	.	4c\	-te	8a\	.	8ff#\	.	8ff#\	.
8A\	.	.	.	8a\	.	8aa\	.	8aa\	.
8B\	.	4d\	ve-	8b\	.	8gg\	.	8gg\	.
8B\J	.	.	.	8b\J	.	8dd\J	.	8dd\J	.
=76	=76	=76	=76	=76	=76	=76	=76	=76	=76
!	!LO:DY:t=po f.	!	!	!	!LO:DY:t=pof&colon;	!	!LO:DY:t=pof&colon;	!	!LO:DY:t=po.f.
8C/L	fp	4E\	-xil-	8c/L	fp	(32ee\LLL	fp	(32ee\LLL	fp
.	.	.	.	.	.	32ff#\JJ	.	32ff#\JJ	.
.	.	.	.	.	.	8.gg\J)	.	8.gg\J)	.
8C/	.	.	.	8c/	.	.	.	.	.
8C/	.	4F#\	-la	8c/	.	(32ff#\LLL	.	(32ff#\LLL	.
.	.	.	.	.	.	32gg\JJ	.	32gg\JJ	.
.	.	.	.	.	.	8.aa\J)	.	8.aa\J)	.
8C/	.	.	.	8c/	.	.	.	.	.
8BB/	.	4G\	di-	8B/	.	(32gg\LLL	.	(32gg\LLL	.
.	.	.	.	.	.	32aa\JJ	.	32aa\JJ	.
.	.	.	.	.	.	8.bb\J)	.	8.bb\J)	.
8BB/J	.	.	.	8B/J	.	.	.	.	.
!LO:PB:g=original	!	!LO:PB:g=original	!	!	!	!LO:LB:g=original	!	!	!
=77	=77	=77	=77	=77	=77	=77	=77	=77	=77
!	!LO:DY:t=for&colon;	!	!	!LO:TX:t=P:problem=mixed beam	!	!	!	!	!LO:DY:t=f.
8C/L	f	8.C/L	-(ca)-	8c\L	f	8.ee\L	f	8ee\L	f
8C/	.	.	.	8c\	.	.	.	16ccc\L	.
.	.	16E/Jk	.	.	.	16aa\Jk	.	16aa\JJ	.
8D/	.	2D/	.	8d\	.	4gg\	.	4bb\	.
8D/	.	.	.	8d\	.	.	.	.	.
8DD/	.	.	.	8D/	.	4ff#\	.	4aa\	.
8DD/J	.	.	.	8D/J	.	.	.	.	.
!	!	!	!	!	!	!	!	!LO:LB:g=original	!
=78	=78	=78	=78	=78	=78	=78	=78	=78	=78
4GG/	.	4GG/	-te	4G/	.	8gg 8b 8d/	.	4gg 4b 4d/	.
.	.	.	.	.	.	8d/L	p	.	.
4r	.	4r	.	4r	.	8d/	.	4r	.
.	.	.	.	.	.	8d/	.	.	.
4r	.	4r	.	4r	.	8d/	.	4r	.
.	.	.	.	.	.	8d/J	.	.	.
=79	=79	=79	=79	=79	=79	=79	=79	=79	=79
*	*	*	*	*	*	*tremolo	*	*	*
!	!LO:DY:rj:t=p.	!	!	!	!	!	!	!LO:TX:b:t=1	!
8.G\L	p	4r	.	4b|\	p	8d/L	.	2.r	.
.	.	.	.	.	.	8d/	.	.	.
16A\K	.	.	.	.	.	.	.	.	.
8.B\	.	4r	.	4r	.	8d/	.	.	.
.	.	.	.	.	.	8d/	.	.	.
16c\K	.	.	.	.	.	.	.	.	.
8.d\	.	8r	.	(4b\	.	8d/	.	.	.
.	.	8G\	e-	.	.	8d/J	.	.	.
16G\Jk	.	.	.	.	.	.	.	.	.
!LO:LB:g=original	!	!LO:LB:g=original	!	!	!	!	!	!	!
=80	=80	=80	=80	=80	=80	=80	=80	=80	=80
!	!	!	!	!	!	!	!	!	!LO:DY:t=p.
4F#\	.	4D\	-ius-	4a\)	.	8d/L	.	8.dd\L	p
.	.	.	.	.	.	8d/	.	.	.
.	.	.	.	.	.	.	.	16ee\K	.
4r	.	4.A\	-dem	4r	.	8d/	.	8.ff#\	.
.	.	.	.	.	.	8d/	.	.	.
.	.	.	.	.	.	.	.	16gg\K	.
4r	.	.	.	4r	.	8d/	.	8.aa\	.
.	.	8c\	ho-	.	.	8d/J	.	.	.
.	.	.	.	.	.	.	.	16ccc\Jk	.
=81	=81	=81	=81	=81	=81	=81	=81	=81	=81
8.G\L	.	4B\	-no-	4b\	.	8d/L	.	4bb|\	.
.	.	.	.	.	.	8d/	.	.	.
16A\K	.	.	.	.	.	.	.	.	.
8.B\	.	4G\	-ri	4r	.	8d/	.	4r	.
.	.	.	.	.	.	8d/	.	.	.
16c\K	.	.	.	.	.	.	.	.	.
8.d\	.	8r	.	(4b\	.	8d/	.	4r	.
.	.	8G\	ve-	.	.	8d/J	.	.	.
16G\Jk	.	.	.	.	.	.	.	.	.
!LO:LB:g=original	!	!LO:LB:g=original	!	!	!	!	!	!	!
=82	=82	=82	=82	=82	=82	=82	=82	=82	=82
!	!	!	!	!	!	!	!LO:DY:t=pof&colon;	!	!LO:DY:t=po. f.
4F#|\	.	4D\	-xil-	4a\)	.	8d/L	fp	8.dd\L	fp
.	.	.	.	.	.	8d/	.	.	.
.	.	.	.	.	.	.	.	16ee\K	.
4r	.	4.A\	-la	4r	.	8d/	.	8.ff#\	.
.	.	.	.	.	.	8d/	.	.	.
.	.	.	.	.	.	.	.	16gg\K	.
4r	.	.	.	4r	.	8d/	.	8.aa\	.
.	.	8c\	di-	.	.	8d/J	.	.	.
.	.	.	.	.	.	.	.	16ccc\Jk	.
*	*	*	*	*	*	*Xtremolo	*	*	*
=83	=83	=83	=83	=83	=83	=83	=83	=83	=83
!	!LO:DY:t=pof.	!	!	!	!	!	!	!	!
8GG/L	fp	4B\	-ca-	8G/L	.	(4dd\	.	(32bb\LLL	.
.	.	.	.	.	.	.	.	32aa\JJ	.
.	.	.	.	.	.	.	.	8.gg\J)	.
8GG/	.	.	.	8G/	.	.	.	.	.
8AA/	.	4F#\	-te	8A/	.	4cc\	.	(32ff#\LLL	.
.	.	.	.	.	.	.	.	32gg\JJ	.
.	.	.	.	.	.	.	.	8.aa\J)	.
8AA/	.	.	.	8A/	.	.	.	.	.
8BB/	.	4G\	ve-	8B/	.	4dd\)	.	(32gg\LLL	.
.	.	.	.	.	.	.	.	32aa\JJ	.
.	.	.	.	.	.	.	.	8.bb\J)	.
8BB/J	.	.	.	8B/J	.	.	.	.	.
!	!	!	!	!LO:LB:g=original	!	!	!	!	!
=84	=84	=84	=84	=84	=84	=84	=84	=84	=84
!	!LO:DY:t=rinfa.	!	!	!	!LO:DY:t=rinz&colon;	!	!LO:DY:t=rinz&colon;	!	!LO:DY:t=rinfz&colon;
8C/L	rfz	4E\	-xil-	8c/L	rfz	(4cc\	rfz	(32ee\LLL	rfz
.	.	.	.	.	.	.	.	32ff#\JJ	.
.	.	.	.	.	.	.	.	8.gg\J)	.
8C/	.	.	.	8c/	.	.	.	.	.
8C/	.	4F#\	-la	8c/	.	4a\	.	(32ff#\LLL	.
.	.	.	.	.	.	.	.	32gg\JJ	.
.	.	.	.	.	.	.	.	8.aa\J)	.
8C/	.	.	.	8c/	.	.	.	.	.
8BB/	.	4G\	di-	8B/	.	4dd\)	.	(32gg\LLL	.
.	.	.	.	.	.	.	.	32aa\JJ	.
.	.	.	.	.	.	.	.	8.bb\J)	.
8BB/J	.	.	.	8B/J	.	.	.	.	.
=85	=85	=85	=85	=85	=85	=85	=85	=85	=85
!	!LO:DY:t=f.	!	!	!LO:TX:t=P:problem=mixed beam	!	!	!	!	!LO:DY:t=f.
8C/L	f	8.E\L	-ca-	8c\L	f	8.ee\L	f	8ee\L	f
8C/	.	.	.	8c\	.	.	.	16ccc\L	.
.	.	16A\Jk	.	.	.	16aa\Jk	.	16aa\JJ	.
.	.	4qqG/	.	.	.	.	.	.	.
*	*	*2\right	*	*	*	*	*	*	*
8D/	.	2F#\	.	8d\	.	4gg\	.	4bb\	.
8D/	.	.	.	8d\	.	.	.	.	.
8DD/	.	.	.	8D/	.	4ff#\	.	4aa\	.
8DD/J	.	.	.	8D/J	.	.	.	.	.
=86	=86	=86	=86	=86	=86	=86	=86	=86	=86
4GG/	.	4G\	-te	4G/	.	8gg 8b 8d/	.	4gg 4b 4d/	.
.	.	.	.	.	.	8d/L	p	.	.
4r	.	4r	.	4r	.	8d/	.	4r	.
.	.	.	.	.	.	8d/	.	.	.
4r	.	4r	.	4r	.	8d/	.	4r	.
.	.	.	.	.	.	8d/J	.	.	.
!	!	!	!	!	!	!LO:LB:g=original	!	!	!LO:LB:g=original
=87	=87	=87	=87	=87	=87	=87	=87	=87	=87
*	*	*	*	*	*	*tremolo	*	*	*
!	!	!	!	!	!	!	!	!LO:TX:b:t=1	!
8.G\L	p	4r	.	4b\	.	8d/L	.	2.r	.
.	.	.	.	.	.	8d/	.	.	.
16A\K	.	.	.	.	.	.	.	.	.
8.B\	.	4rBB	.	4r	.	8d/	.	.	.
.	.	.	.	.	.	8d/	.	.	.
16c\K	.	.	.	.	.	.	.	.	.
8.d\	.	8r	.	(4b\	.	8d/	.	.	.
.	.	8d\	e-	.	.	8d/J	.	.	.
16G\Jk	.	.	.	.	.	.	.	.	.
!LO:LB:g=original	!	!LO:LB:g=original	!	!	!	!	!	!	!
=88	=88	=88	=88	=88	=88	=88	=88	=88	=88
!	!	!	!	!	!	!	!	!	!LO:DY:t=p.
4F#\	.	4d\	-ius-	4a\)	.	8d/L	.	8.dd\L	p
.	.	.	.	.	.	8d/	.	.	.
.	.	.	.	.	.	.	.	16ee\K	.
4r	.	4.D/	-dem	4r	.	8d/	.	8.ff#\	.
.	.	.	.	.	.	8d/	.	.	.
.	.	.	.	.	.	.	.	16gg\K	.
4r	.	.	.	4r	.	8d/	.	8.aa\	.
.	.	8c\	ho-	.	.	8d/J	.	.	.
.	.	.	.	.	.	.	.	16ccc\Jk	.
=89	=89	=89	=89	=89	=89	=89	=89	=89	=89
8.G\L	.	4B\	-no-	4b\	.	8d/L	.	4bb\	.
.	.	.	.	.	.	8d/	.	.	.
16A\K	.	.	.	.	.	.	.	.	.
8.B\	.	4G\	-ri	4r	.	8d/	.	4r	.
.	.	.	.	.	.	8d/	.	.	.
16c\K	.	.	.	.	.	.	.	.	.
8.d\	.	8r	.	(4b\	.	8d/	.	4r	.
.	.	8d\	ve-	.	.	8d/J	.	.	.
16G\Jk	.	.	.	.	.	.	.	.	.
=90	=90	=90	=90	=90	=90	=90	=90	=90	=90
!	!	!	!	!	!	!	!LO:DY:t=pof&colon;	!	!LO:DY:t=pof.
4F#\	.	4d\	-xil-	4a\)	.	8d/L	fp	8.dd\L	fp
.	.	.	.	.	.	8d/	.	.	.
.	.	.	.	.	.	.	.	16ee\K	.
4r	.	4.D/	-la	4r	.	8d/	.	8.ff#\	.
.	.	.	.	.	.	8d/	.	.	.
.	.	.	.	.	.	.	.	16gg\K	.
4r	.	.	.	4r	.	8d/	.	8.aa\	.
.	.	8c\	di-	.	.	8d/J	.	.	.
.	.	.	.	.	.	.	.	16ccc\Jk	.
*	*	*	*	*	*	*Xtremolo	*	*	*
=91	=91	=91	=91	=91	=91	=91	=91	=91	=91
!	!LO:DY:t=rinfa.	!	!	!	!LO:DY:t=rinz&colon;	!	!LO:DY:t=rinz&colon;	!	!LO:DY:t=rinfz&colon;
8G\L	rfz	4B\	-ca-	8g\L	rfz	(4dd\	rfz	(32bb\LLL	rfz
.	.	.	.	.	.	.	.	32aa\JJ	.
.	.	.	.	.	.	.	.	8.gg\J)	.
8G\	.	.	.	8g\	.	.	.	.	.
8A\	.	4c\	-te	8a\	.	4cc\	.	(32ff#\LLL	.
.	.	.	.	.	.	.	.	32gg\JJ	.
.	.	.	.	.	.	.	.	8.aa\J)	.
8A\	.	.	.	8a\	.	.	.	.	.
8B\	.	4d\	ve-	8b\	.	4dd\)	.	(32gg\LLL	.
.	.	.	.	.	.	.	.	32aa\JJ	.
.	.	.	.	.	.	.	.	8.bb\J)	.
8B\J	.	.	.	8b\J	.	.	.	.	.
!	!	!	!	!LO:PB:g=original	!	!	!	!	!
=92	=92	=92	=92	=92	=92	=92	=92	=92	=92
*	*	*^	*	*	*	*	*	*	*
!	!LO:DY:t=f.	!	!	!	!	!	!	!	!	!LO:DY:t=f.
8C/L	f	4E\	4e/	-xil-	8c/L	f	(4cc\	f	(32ee\LLL	f
.	.	.	.	.	.	.	.	.	32ff#\JJ	.
.	.	.	.	.	.	.	.	.	8.gg\J)	.
8C/	.	.	.	.	8c/	.	.	.	.	.
8C/	.	4F#\	4ryy	-la	8c/	.	4a\	.	(32ff#\LLL	.
.	.	.	.	.	.	.	.	.	32gg\JJ	.
.	.	.	.	.	.	.	.	.	8.aa\J)	.
8C/	.	.	.	.	8c/	.	.	.	.	.
8BB/	.	4G\	4ryy	di-	8B/	.	4dd\)	.	(32gg\LLL	.
.	.	.	.	.	.	.	.	.	32aa\JJ	.
.	.	.	.	.	.	.	.	.	8.bb\J)	.
8BB/J	.	.	.	.	8B/J	.	.	.	.	.
*	*	*v	*v	*	*	*	*	*	*	*
!LO:LB:g=original	!	!LO:LB:g=original	!	!	!	!	!	!	!
=93	=93	=93	=93	=93	=93	=93	=93	=93	=93
8C/L	.	8.C/L	-ca-	8c/L	.	8.ee\L	.	8ee\L	.
8C/	.	.	.	8c/	.	.	.	16ccc\L	.
.	.	16E/Jk	.	.	.	16aa\Jk	.	16aa\JJ	.
8D/	.	2D/	.	8d/	.	4gg\	.	4bb\	.
8D/	.	.	.	8d/	.	.	.	.	.
8DD/	.	.	.	8D/	.	4ff#\	.	4aa\	.
8DD/J	.	.	.	8D/J	.	.	.	.	.
=94	=94	=94	=94	=94	=94	=94	=94	=94	=94
!LO:TX:t=P:problem=mixed beam	!	!	!	!LO:TX:t=P:problem=mixed beam	!	!	!	!	!
8GG/L	.	4GG/	-te	8G/L	.	8gg 8b 8d/	.	8gg 8b 8d/	.
(8G\	.	.	.	(8g\	.	(8g/L	.	(8g/L	.
8F#\	.	4rBB	.	8f#\	.	8f#/	.	8f#/	.
8G\)	.	.	.	8g\)	.	8g/)	.	8g/)	.
!LO:SIC:v:s=8BB	!	!	!	!	!	!	!	!	!
8C#|X\	.	4rBB	.	8B|\	.	8B'/	.	8B|/	.
8G|\J	.	.	.	8g|\J	.	8g|/J	.	8g'/J	.
!	!	!	!	!	!	!	!	!LO:LB:g=original	!
=95	=95	=95	=95	=95	=95	=95	=95	=95	=95
8C\L	.	4r	.	8c\L	.	(8c/L	.	8c/L	.
(8G\	.	.	.	(8g\	.	8g/	.	(8g/	.
8F#\	.	4r	.	8f#\	.	8f#/	.	8f#/	.
8G\)	.	.	.	8g\)	.	8g/J)	.	8g/J)	.
8C#X|\	.	4G\	di-	8c#X|\	.	8c#X'>/L	.	8c#X'/L	.
8G|\J	.	.	.	8g|\J	.	8g'>/J	.	8g'/J	.
=96	=96	=96	=96	=96	=96	=96	=96	=96	=96
2.D;\	.	2.D;\	-ca-	4d\	.	4d/	.	4d/	.
.	.	.	.	4r	.	4r	.	4rg	.
.	.	.	.	4r;	.	4r;	.	4rg;	.
!	!	!	!	!	!	!LO:PB:g=original	!	!	!
=97	=97	=97	=97	=97	=97	=97	=97	=97	=97
8G\L	.	4GG/	-te.	[2.d\	.	16b/LL	.	4gg\	.
.	.	.	.	.	.	16d/	.	.	.
8G\	.	.	.	.	.	16b/	.	.	.
.	.	.	.	.	.	16d/JJ	.	.	.
8G\	.	4r	.	.	.	16b/LL	.	4.bb\	.
.	.	.	.	.	.	16d/	.	.	.
8G\	.	.	.	.	.	16b/	.	.	.
.	.	.	.	.	.	16d/JJ	.	.	.
8G\	.	4r	.	.	.	16b/LL	.	.	.
.	.	.	.	.	.	16d/	.	.	.
8G\J	.	.	.	.	.	16b/	.	8ccc\	.
.	.	.	.	.	.	16d/JJ	.	.	.
!LO:LB:g=original	!	!LO:LB:g=original	!	!	!	!	!	!	!
=98	=98	=98	=98	=98	=98	=98	=98	=98	=98
8F#\L	.	2.r	.	2.d\]	.	16a/LL	.	4ddd\	.
.	.	.	.	.	.	16d/	.	.	.
8F#\	.	.	.	.	.	16a/	.	.	.
.	.	.	.	.	.	16d/JJ	.	.	.
8F#\	.	.	.	.	.	16a/LL	.	4dd\	.
.	.	.	.	.	.	16d/	.	.	.
8F#\	.	.	.	.	.	16a/	.	.	.
.	.	.	.	.	.	16d/JJ	.	.	.
8F#\	.	.	.	.	.	16a/LL	.	8r	.
.	.	.	.	.	.	16d/	.	.	.
8F#\J	.	.	.	.	.	16a/	.	8ccc\	.
.	.	.	.	.	.	16d/JJ	.	.	.
=99	=99	=99	=99	=99	=99	=99	=99	=99	=99
4G|\	.	2.r	.	4d\	.	8g/	p	4bb\	.
.	.	.	.	.	.	8d/L	.	.	.
4r	.	.	.	4r	.	8d/	.	4r	.
.	.	.	.	.	.	8d/	.	.	.
4r	.	.	.	4r	.	8d/	.	4r	.
.	.	.	.	.	.	8d/J	.	.	.
=100	=100	=100	=100	=100	=100	=100	=100	=100	=100
*	*	*	*	*	*	*tremolo	*	*	*
!	!LO:DY:t=p.	!	!	!	!	!	!	!LO:TX:b:t=1	!
8.G\L	p	2.r	.	4b\	.	8d/L	.	2.r	.
.	.	.	.	.	.	8d/	.	.	.
16A\K	.	.	.	.	.	.	.	.	.
8.B\	.	.	.	4r	.	8d/	.	.	.
.	.	.	.	.	.	8d/	.	.	.
16c\K	.	.	.	.	.	.	.	.	.
8.d\	.	.	.	(4b\	.	8d/	.	.	.
.	.	.	.	.	.	8d/J	.	.	.
16G\Jk	.	.	.	.	.	.	.	.	.
=101	=101	=101	=101	=101	=101	=101	=101	=101	=101
!	!	!	!	!	!	!	!	!	!LO:DY:t=p.
4F#\	.	2.r	.	4a\)	.	8d/L	.	8.dd\L	p
.	.	.	.	.	.	8d/	.	.	.
.	.	.	.	.	.	.	.	16ee\K	.
4r	.	.	.	4r	.	8d/	.	8.ff#\	.
.	.	.	.	.	.	8d/	.	.	.
.	.	.	.	.	.	.	.	16gg\K	.
4r	.	.	.	4r	.	8d/	.	8.aa\	.
.	.	.	.	.	.	8d/J	.	.	.
.	.	.	.	.	.	.	.	16ccc\Jk	.
!	!	!	!	!LO:LB:g=original	!	!	!	!	!
=102	=102	=102	=102	=102	=102	=102	=102	=102	=102
!	!LO:DY:t=po f.	!	!	!	!	!	!	!	!
8.G\L	fp	2.r	.	4b\	.	8d/L	.	4bb\	.
.	.	.	.	.	.	8d/	.	.	.
16A\K	.	.	.	.	.	.	.	.	.
8.B\	.	.	.	4r	.	8d/	.	4r	.
.	.	.	.	.	.	8d/	.	.	.
16c\K	.	.	.	.	.	.	.	.	.
8.d\	.	.	.	(4b\	.	8d/	.	4r	.
.	.	.	.	.	.	8d/J	.	.	.
16G\Jk	.	.	.	.	.	.	.	.	.
!LO:PB:g=original	!	!LO:PB:g=original	!	!	!	!	!	!	!
=103	=103	=103	=103	=103	=103	=103	=103	=103	=103
!	!	!	!	!	!	!	!LO:DY:t=pof&colon;	!	!LO:DY:t=po f.
4F#\	.	2.r	.	4a\)	.	8d/L	fp	8.dd\L	fp
.	.	.	.	.	.	8d/	.	.	.
.	.	.	.	.	.	.	.	16ee\K	.
4r	.	.	.	4r	.	8d/	.	8.ff#\	.
.	.	.	.	.	.	8d/	.	.	.
.	.	.	.	.	.	.	.	16gg\K	.
4r	.	.	.	4r	.	8d/	.	8.aa\	.
.	.	.	.	.	.	8d/J	.	.	.
.	.	.	.	.	.	.	.	16ccc\Jk	.
*	*	*	*	*	*	*Xtremolo	*	*	*
!	!	!	!	!	!	!	!	!LO:LB:g=original	!
=104	=104	=104	=104	=104	=104	=104	=104	=104	=104
!	!LO:DY:rj:t=f.	!	!	!	!	!	!	!	!LO:DY:t=f.
8GG/L	f	2.r	.	8G/L	f	(4dd\	f	(32bb\LLL	f
.	.	.	.	.	.	.	.	32aa\JJ	.
.	.	.	.	.	.	.	.	8.gg\J)	.
8GG/	.	.	.	8G/	.	.	.	.	.
8AA/	.	.	.	8A/	.	4cc\	.	(32ff#\LLL	.
.	.	.	.	.	.	.	.	32gg\JJ	.
.	.	.	.	.	.	.	.	8.aa\J)	.
8AA/	.	.	.	8A/	.	.	.	.	.
8BB/	.	.	.	8B/	.	4dd\)	.	(32gg\LLL	.
.	.	.	.	.	.	.	.	32aa\JJ	.
.	.	.	.	.	.	.	.	8.bb\J)	.
8BB/J	.	.	.	8B/J	.	.	.	.	.
=105	=105	=105	=105	=105	=105	=105	=105	=105	=105
8C/L	.	2.r	.	8c/L	.	(4cc\	.	(32ee\LLL	.
.	.	.	.	.	.	.	.	32ff#\JJ	.
.	.	.	.	.	.	.	.	8.gg\J)	.
8C/	.	.	.	8c/	.	.	.	.	.
8C/	.	.	.	8c/	.	4a\	.	(32ff#\LLL	.
.	.	.	.	.	.	.	.	32gg\JJ	.
.	.	.	.	.	.	.	.	8.aa\J)	.
8C/	.	.	.	8c/	.	.	.	.	.
8BB/	.	.	.	8B/	.	4dd\)	.	(32gg\LLL	.
.	.	.	.	.	.	.	.	32aa\JJ	.
.	.	.	.	.	.	.	.	8.bb\J)	.
8BB/J	.	.	.	8B/J	.	.	.	.	.
=106	=106	=106	=106	=106	=106	=106	=106	=106	=106
!	!	!	!	!LO:TX:t=P:problem=mixed beam	!	!	!	!	!
8C/L	.	2.r	.	8c\L	.	8.ee\L	.	8ee\L	.
8C/	.	.	.	8c\	.	.	.	16ccc\L	.
.	.	.	.	.	.	16aa\Jk	.	16aa\JJ	.
8D/	.	.	.	8d\	.	4gg\	.	4bb\	.
8D/	.	.	.	8d\	.	.	.	.	.
8DD/	.	.	.	8D/	.	4ff#\	.	4aa\	.
8DD/J	.	.	.	8D/J	.	.	.	.	.
!	!	!	!	!	!	!LO:LB:g=original	!	!	!
=107	=107	=107	=107	=107	=107	=107	=107	=107	=107
*	*	*	*	*	*	*^	*	*^	*
4GG/	.	2.r	.	4G/	.	4gg\	4ryy	.	4gg\	4ryy	.
4GG/	.	.	.	4G/	.	8.gg/L	8.b\L	.	8.gg/L	8.b\L	.
.	.	.	.	.	.	16gg/K	16b\K	.	16gg/K	16b\K	.
4GG/	.	.	.	4G/	.	8.gg/	8.b\	.	8.gg/	8.b\	.
.	.	.	.	.	.	16gg/Jk	16b\Jk	.	16gg/Jk	16b\Jk	.
=108	=108	=108	=108	=108	=108	=108	=108	=108	=108	=108	=108
4GG/	.	4r	.	4G/	.	4gg/	4b\	.	4gg/	4b\	.
4r	.	4r	.	4r	.	4r	4ryy	.	4r	4ryy	.
4r	.	4G\	In	4r	.	4r	4ryy	.	4r	4ryy	.
*	*	*	*	*	*	*v	*v	*	*	*	*
*	*	*	*	*	*	*	*	*v	*v	*
!LO:LB:g=original	!	!LO:LB:g=original	!	!	!	!	!	!	!
=109	=109	=109	=109	=109	=109	=109	=109	=109	=109
!	!LO:DY:rj:t=p.	!	!	!	!	!	!	!	!LO:DY:t=p.
8G\L	p	4G\	no-	8g\L	p	16g/LL	p	16b/LL	p
.	.	.	.	.	.	16g/	.	16b/	.
8G\	.	.	.	8g\	.	16g/	.	16b/	.
.	.	.	.	.	.	16g/JJ	.	16b/JJ	.
*	*	*	*	*	*	*tremolo	*	*	*
8G\	.	4.G\	-biſ	8g\	.	16g/LL	.	16b/LL	.
.	.	.	.	.	.	16g/	.	16b/	.
8G\	.	.	.	8g\	.	16g/	.	16b/	.
.	.	.	.	.	.	16g/JJ	.	16b/JJ	.
8G\	.	.	.	8g\	.	16g/LL	.	16b/LL	.
.	.	.	.	.	.	16g/	.	16b/	.
8G\J	.	8G\	E-	8g\J	.	16g/	.	16b/	.
.	.	.	.	.	.	16g/JJ	.	16b/JJ	.
!	!	!	!	!	!	!	!	!LO:LB:g=original	!
=110	=110	=110	=110	=110	=110	=110	=110	=110	=110
*	*	*	*	*	*	*	*	*tremolo	*
8G\L	.	4A\	-ter-	8g\L	.	16a/LL	.	16cc\LL	.
.	.	.	.	.	.	16a/	.	16cc\	.
8Fn\	.	.	.	8fn\	.	16a/	.	16cc\	.
.	.	.	.	.	.	16a/	.	16cc\	.
8F\	.	4A\	-nu(m)	8f\	.	16a/	.	16cc\	.
.	.	.	.	.	.	16a/	.	16cc\	.
8F\	.	.	.	8f\	.	16a/	.	16cc\	.
.	.	.	.	.	.	16a/	.	16cc\	.
8F\	.	8A\	De-	8f\	.	16a/	.	16cc\	.
.	.	.	.	.	.	16a/	.	16cc\	.
8F\J	.	8A\	-i	8f\J	.	16a/	.	16cc\	.
.	.	.	.	.	.	16a/JJ	.	16cc\JJ	.
!	!	!	!	!LO:LB:g=original	!	!	!	!	!
=111	=111	=111	=111	=111	=111	=111	=111	=111	=111
*tremolo	*	*	*	*	*	*	*	*	*
!LO:SIC:v:s=8FnL	!	!	!	!	!	!	!	!	!
8F#\L	.	4B\	ni-	8f#\L	.	16b\LL	.	16dd\LL	.
.	.	.	.	.	.	16b\	.	16dd\	.
!LO:SIC:v:s=8Fn	!	!	!	!	!	!	!	!	!
8F#\	.	.	.	8f#\	.	16b\	.	16dd\	.
.	.	.	.	.	.	16b\	.	16dd\	.
!LO:SIC:v:s=8Fn	!	!	!	!	!	!	!	!	!
8F#\	.	4.B\	-tor	8f#\	.	16b\	.	16dd\	.
.	.	.	.	.	.	16b\	.	16dd\	.
!LO:SIC:v:s=8Fn	!	!	!	!	!	!	!	!	!
8F#\	.	.	.	8f#\	.	16b\	.	16dd\	.
.	.	.	.	.	.	16b\	.	16dd\	.
!LO:SIC:v:s=8Fn	!	!	!	!	!	!	!	!	!
8F#\	.	.	.	8f#\	.	16b\	.	16dd\	.
.	.	.	.	.	.	16b\	.	16dd\	.
!LO:SIC:v:s=8FnJ	!	!	!	!	!	!	!	!	!
8F#\J	.	8B\	lu-	8f#\J	.	16b\	.	16dd\	.
.	.	.	.	.	.	16b\JJ	.	16dd\JJ	.
=112	=112	=112	=112	=112	=112	=112	=112	=112	=112
8E\L	.	4c\	-ce-	8e\L	.	16cc\LL	.	16g/LL	.
.	.	.	.	.	.	16cc\	.	16g/	.
8E\	.	.	.	8e\	.	16cc\	.	16g/	.
.	.	.	.	.	.	16cc\	.	16g/	.
8E\	.	4C/	-bit	8e\	.	16cc\	.	16g/	.
.	.	.	.	.	.	16cc\	.	16g/	.
8E\	.	.	.	8e\	.	16cc\	.	16g/	.
.	.	.	.	.	.	16cc\	.	16g/	.
8E\	.	8c\	De-	8e\	.	16cc\	.	16g/	.
.	.	.	.	.	.	16cc\	.	16g/	.
8E\J	.	8c\	-i	8e\J	.	16cc\	.	16g/	.
.	.	.	.	.	.	16cc\JJ	.	16g/JJ	.
*Xtremolo	*	*	*	*	*	*	*	*	*
=113	=113	=113	=113	=113	=113	=113	=113	=113	=113
4Fn\	.	4Fn\	ni-	4fn\	.	16fn/LL	.	16fn/LL	.
.	.	.	.	.	.	16f/	.	16f/	.
.	.	.	.	.	.	16f/	.	16f/	.
.	.	.	.	.	.	16f/JJ	.	16f/JJ	.
4D\	.	4D\	-tor	4d\	.	16d/LL	.	16d/LL	.
.	.	.	.	.	.	16d/	.	16d/	.
.	.	.	.	.	.	16d/	.	16d/	.
.	.	.	.	.	.	16d/JJ	.	16d/JJ	.
4G\	.	4G\	lu-	4g\	.	16g/LL	.	16g/LL	.
.	.	.	.	.	.	16g/	.	16g/	.
.	.	.	.	.	.	16g/	.	16g/	.
.	.	.	.	.	.	16g/JJ	.	16g/JJ	.
*	*	*	*	*	*	*Xtremolo	*	*Xtremolo	*
!LO:LB:g=original	!	!LO:LB:g=original	!	!	!	!	!	!	!
=114	=114	=114	=114	=114	=114	=114	=114	=114	=114
*tremolo	*	*	*	*	*	*	*	*	*
!	!	!	!	!	!	!	!	!LO:TX:t=P:problem=mixed beam	!
8C/L	.	4E\	-ce-	8c/L	.	8e\L	.	8e/L	.
8C/	.	.	.	8c/	.	16ee\L	.	16gg\L	.
.	.	.	.	.	.	16dd\JJ	.	16ffn\JJ	.
8C/	.	4C/	-bit	8c/	.	8cc\L	.	8ee\L	.
8C/	.	.	.	8c/	.	8ee\	.	8gg\	.
8C/	.	8r	.	8c/	.	8cc\	.	8ee\	.
8C/J	.	8G\	et	8c/J	.	8ee\J	.	8gg\J	.
=115	=115	=115	=115	=115	=115	=115	=115	=115	=115
*	*	*	*	*tremolo	*	*	*	*	*
8C/L	.	4c\	sem-	8c\L	.	8cc\L	.	8ee\L	.
8C/	.	.	.	8c\	.	16ee\L	.	16gg\L	.
.	.	.	.	.	.	16dd\JJ	.	16ffn\JJ	.
8C/	.	4.c\	-per	8c\	.	8cc\L	.	8ee\L	.
8C/	.	.	.	8c\	.	8ee\	.	8gg\	.
8C/	.	.	.	8c\	.	8cc\	.	8ee\	.
8C/J	.	8c\	ti-	8c\J	.	8ee\J	.	8gg\J	.
!	!	!	!	!	!	!LO:LB:g=original	!	!	!
=116	=116	=116	=116	=116	=116	=116	=116	=116	=116
8C/L	.	4e\	-me-	8c\L	.	8cc\L	.	8ee\L	.
8C/	.	.	.	8c\	.	16ee\L	.	16gg\L	.
.	.	.	.	.	.	16dd\JJ	.	16ffn\JJ	.
8C/	.	4c\	-bit	8c\	.	8cc\L	.	8ee\L	.
8C/	.	.	.	8c\	.	8ee\	.	8gg\	.
8C/	.	8r	.	8c\	.	8cc\	.	8ee\	.
!	!	!	!	!	!	!	!	!	!LO:DY:t=po f.
8C/J	.	8G\	voſ	8c\J	.	8ee\J	.	8gg\J	fp
*Xtremolo	*	*	*	*Xtremolo	*	*	*	*	*
=117	=117	=117	=117	=117	=117	=117	=117	=117	=117
!	!LO:DY:t=pof.	!	!	!	!LO:DY:rj:t=pof&colon;	!	!LO:DY:t=pof&colon;	!	!
4E/	fp	4E/	a-	4e\	fp	4e/	fp	4e/	.
4D/	.	4D/	-ter	4d\	.	4d/	.	4d/	.
4C/	.	4C/	A-	4c\	.	4c/	.	4c/	.
=118	=118	=118	=118	=118	=118	=118	=118	=118	=118
*tremolo	*	*	*	*	*	*	*	*	*
8GG/L	.	2.GG/	-ver-	8G/L	.	16B/LL	.	16d/LL	.
.	.	.	.	.	.	16B/	.	16d/	.
8GG/	.	.	.	8G/	.	16B/	.	16d/	.
.	.	.	.	.	.	16B/JJ	.	16d/JJ	.
*	*	*	*	*	*	*tremolo	*	*tremolo	*
8GG/	.	.	.	8G/	.	16B/LL	.	16d/LL	.
.	.	.	.	.	.	16B/	.	16d/	.
8GG/	.	.	.	8G/	.	16B/	.	16d/	.
.	.	.	.	.	.	16B/JJ	.	16d/JJ	.
!	!	!	!	!	!	!	!	!	!LO:DY:t=f.
8GG/	.	.	.	8G/	.	16c/LL	.	16e/LL	f
.	.	.	.	.	.	16c/	.	16e/	.
8GG/J	.	.	.	8G/J	.	16c/	.	16e/	.
.	.	.	.	.	.	16c/JJ	.	16e/JJ	.
!LO:LB:g=original	!	!LO:LB:g=original	!	!LO:LB:g=original	!	!	!	!	!
=119	=119	=119	=119	=119	=119	=119	=119	=119	=119
*	*	*	*	*tremolo	*	*	*	*	*
!	!LO:DY:rj:t=f.	!	!	!	!	!	!	!	!
8GG/L	f	2.GG/	-n(um)	8G/L	f	16B/LL	.	16d/LL	.
.	.	.	.	.	.	16B/	.	16d/	.
8GG/	.	.	.	8G/	.	16B/	.	16d/	.
.	.	.	.	.	.	16B/JJ	.	16d/JJ	.
8GG/	.	.	.	8G/	.	16B/LL	.	16d/LL	.
.	.	.	.	.	.	16B/	.	16d/	.
8GG/	.	.	.	8G/	.	16B/	.	16d/	.
.	.	.	.	.	.	16B/JJ	.	16d/JJ	.
8GG/	.	.	.	8G/	.	16c/LL	.	16e/LL	.
.	.	.	.	.	.	16c/	.	16e/	.
8GG/J	.	.	.	8G/J	.	16c/	.	16e/	.
.	.	.	.	.	.	16c/JJ	.	16e/JJ	.
*Xtremolo	*	*	*	*Xtremolo	*	*Xtremolo	*	*Xtremolo	*
!	!	!	!	!	!	!	!	!LO:LB:g=original	!
=120	=120	=120	=120	=120	=120	=120	=120	=120	=120
!LO:TX:t=P:problem=mixed beam	!	!	!	!LO:TX:t=P:problem=mixed beam	!	!	!	!	!
8GG/L	.	4r	.	8G/L	.	8B/	.	8d/	.
!	!	!	!	!	!	!	!	!	!LO:DY:t=p.
8G/	p	.	.	8g\	p	16dd\LL	p	16dd\LL	p
.	.	.	.	.	.	16cc\JJ	.	16cc\JJ	.
8G/	.	4r	.	8g\	.	8b\L	.	8b\L	.
8G/	.	.	.	8g\	.	8dd\	.	8dd\	.
8E/	.	4G\	et	8e\	.	8g\	.	8g\	.
8E/J	.	.	.	8e\J	.	8cc\J	.	8cc\J	.
=121	=121	=121	=121	=121	=121	=121	=121	=121	=121
*tremolo	*	*	*	*tremolo	*	*	*	*	*
8Fn\L	.	4A\	sem-	8fn\L	.	8a\L	.	8a\L	.
8F\	.	.	.	8f\	.	16aa\L	.	16aa\L	.
.	.	.	.	.	.	16gg\JJ	.	16gg\JJ	.
8F\	.	4.A\	-per	8f\	.	8ffn\L	.	8ffn\L	.
8F\	.	.	.	8f\	.	8aa\J	.	8aa\J	.
8F\	.	.	.	8f\	.	8a\L	.	8a\L	.
8F\J	.	8B\	ti-	8f\J	.	8b\J	.	8b\J	.
=122	=122	=122	=122	=122	=122	=122	=122	=122	=122
8E\L	.	4c\	-me-	8e\L	.	8cc\L	.	8cc\L	.
8E\	.	.	.	8e\	.	16gg\L	.	16gg\L	.
.	.	.	.	.	.	16ffn\JJ	.	16ffn\JJ	.
8E\	.	4C/	-bit	8e\	.	8ee\L	.	8ee\L	.
8E\	.	.	.	8e\	.	8gg\	.	8gg\	.
8E\	.	4c\	voſ	8e\	.	8cc\	.	8cc\	.
8E\J	.	.	.	8e\J	.	8gg\J	.	8gg\J	.
*Xtremolo	*	*	*	*Xtremolo	*	*	*	*	*
=123	=123	=123	=123	=123	=123	=123	=123	=123	=123
!	!	!	!	!	!LO:DY:rj:t=pof&colon;	!	!LO:DY:t=pof&colon;	!	!LO:DY:rj:t=po. f.
4A\	.	4A\	a-	4a\	fp	4a/	fp	4a/	fp
4G\	.	4G\	-ter	4g\	.	4g/	.	4g/	.
4F#X\	.	4F#X\	A-	4f#X\	.	4f#X/	.	4f#X/	.
!	!	!	!	!	!	!LO:LB:g=original	!	!	!
=124	=124	=124	=124	=124	=124	=124	=124	=124	=124
!LO:TX:t=P:problem=mixed beam	!	!	!	!LO:TX:t=P:problem=mixed beam	!LO:DY:t=rinz&colon;	!	!LO:DY:t=rinz&colon;	!	!LO:DY:t=rinfz&colon;
8G\L	.	2.G\	-ver-	8g\L	rfz	8g/L	rfz	8g/L	rfz
!	!LO:DY:t=rinfz.	!	!	!	!	!	!	!	!
8G\	rfz	.	.	8g\	.	8g/	.	8g/	.
8G\	.	.	.	8g\	.	8g/	.	8g/	.
8G\	.	.	.	8g\	.	8g/	.	8g/	.
8GG\	.	.	.	8G/	.	8g/	.	8g/	.
8GG\J	.	.	.	8G/J	.	8g/J	.	8g/J	.
!LO:LB:g=original	!	!LO:LB:g=original	!	!	!	!	!	!	!
=125	=125	=125	=125	=125	=125	=125	=125	=125	=125
!	!LO:DY:rj:t=f.	!	!	!	!	!	!	!	!
2AA/	f	2A\	-n(um)	2A/	f	2a/	f	2a/	.
4rBB;	.	4r;	.	4r;	.	4r;	.	4r;	.
=126	=126	=126	=126	=126	=126	=126	=126	=126	=126
4c\	.	4c\	a-	4cc\	.	4c/	.	4e/	.
4E\	.	4c\	-ter	4e\	.	4c/	.	4e/	.
4F#\	.	4c\	A-	4f#\	.	4c/	.	4e/	.
=127	=127	=127	=127	=127	=127	=127	=127	=127	=127
4G\	.	2.GG;/	-ver-	4g\	.	4c/	.	4e/	.
4rGG	.	.	.	4r	.	4r	.	4rg	.
4rGG;	.	.	.	4r;	.	4r;	.	4rg;	.
!	!	!	!	!LO:LB:g=original	!	!	!	!LO:LB:g=original	!
=128	=128	=128	=128	=128	=128	=128	=128	=128	=128
8C/L	.	2C/	-n(um)	8c/L	.	16e/LL	.	4cc\	.
.	.	.	.	.	.	16G/	.	.	.
8C/	.	.	.	8c/	.	16e/	.	.	.
.	.	.	.	.	.	16G/JJ	.	.	.
8C/	.	.	.	8c/	.	16e/LL	.	4.ee\	.
.	.	.	.	.	.	16G/	.	.	.
8C/	.	.	.	8c/	.	16e/	.	.	.
.	.	.	.	.	.	16G/JJ	.	.	.
8C/	.	4r	.	8c/	.	16e/LL	.	.	.
.	.	.	.	.	.	16G/	.	.	.
8C/J	.	.	.	8c/J	.	16e/	.	8ff#\	.
.	.	.	.	.	.	16G/JJ	.	.	.
=129	=129	=129	=129	=129	=129	=129	=129	=129	=129
*tremolo	*	*	*	*tremolo	*	*	*	*	*
8BB/L	.	2.r	.	8B/L	.	16d/LL	.	4gg\	.
.	.	.	.	.	.	16G/	.	.	.
8BB/	.	.	.	8B/	.	16d/	.	.	.
.	.	.	.	.	.	16G/JJ	.	.	.
8BB/	.	.	.	8B/	.	16d/LL	.	4g/	.
.	.	.	.	.	.	16G/	.	.	.
8BB/	.	.	.	8B/	.	16d/	.	.	.
.	.	.	.	.	.	16G/JJ	.	.	.
8BB/	.	.	.	8B/	.	16d/LL	.	4ddd\	.
.	.	.	.	.	.	16G/	.	.	.
8BB/J	.	.	.	8B/J	.	16d/	.	.	.
.	.	.	.	.	.	16G/JJ	.	.	.
*Xtremolo	*	*	*	*Xtremolo	*	*	*	*	*
=130	=130	=130	=130	=130	=130	=130	=130	=130	=130
!LO:TX:t=P:problem=mixed beam	!	!	!	!LO:TX:t=P:problem=mixed beam	!	!	!	!	!
8AA/L	.	2.r	.	8A/L	.	16e/LL	.	4ccc\	.
.	.	.	.	.	.	16A/	.	.	.
8AA/	.	.	.	8A/	.	16e/	.	.	.
.	.	.	.	.	.	16A/JJ	.	.	.
8AA/	.	.	.	8A/	.	16e/LL	.	4ccc\	.
.	.	.	.	.	.	16A/	.	.	.
8AA/	.	.	.	8A/	.	16e/	.	.	.
.	.	.	.	.	.	16A/JJ	.	.	.
8F#\	.	.	.	8f#\	.	16d/LL	.	8r	.
.	.	.	.	.	.	16A/	.	.	.
8F#\J	.	.	.	8f#\J	.	16d/	.	8aa\	.
.	.	.	.	.	.	16A/JJ	.	.	.
!	!	!	!	!	!	!LO:LB:g=original	!	!	!
=131	=131	=131	=131	=131	=131	=131	=131	=131	=131
8G\L	.	2.r	.	8g\L	.	(4dd\	.	(32bb\LLL	.
.	.	.	.	.	.	.	.	32aa\JJ	.
.	.	.	.	.	.	.	.	8.gg\J)	.
8G\	.	.	.	8g\	.	.	.	.	.
8A\	.	.	.	8a\	.	4cc\	.	(32ff#\LLL	.
.	.	.	.	.	.	.	.	32gg\JJ	.
.	.	.	.	.	.	.	.	8.aa\J)	.
8A\	.	.	.	8a\	.	.	.	.	.
8B\	.	.	.	8b\	.	4dd\)	.	(32gg\LLL	.
.	.	.	.	.	.	.	.	32aa\JJ	.
.	.	.	.	.	.	.	.	8.bb\J)	.
8B\J	.	.	.	8b\J	.	.	.	.	.
!LO:PB:g=original	!	!LO:PB:g=original	!	!	!	!	!	!	!
=132	=132	=132	=132	=132	=132	=132	=132	=132	=132
8c\L	.	2.r	.	8cc\L	.	(4cc\	.	(32ee\LLL	.
.	.	.	.	.	.	.	.	32ff#\JJ	.
.	.	.	.	.	.	.	.	8.gg\J)	.
8c\	.	.	.	8cc\	.	.	.	.	.
8c\	.	.	.	8cc\	.	4a\	.	(32ff#\LLL	.
.	.	.	.	.	.	.	.	32gg\JJ	.
.	.	.	.	.	.	.	.	8.aa\J)	.
8c\	.	.	.	8cc\	.	.	.	.	.
8B\	.	.	.	8b\	.	4dd\)	.	(32gg\LLL	.
.	.	.	.	.	.	.	.	32aa\JJ	.
.	.	.	.	.	.	.	.	8.bb\J)	.
8B\J	.	.	.	8b\J	.	.	.	.	.
=133	=133	=133	=133	=133	=133	=133	=133	=133	=133
8c\L	.	2.r	.	8cc\L	.	8.ee\L	.	8ee\L	.
8c\	.	.	.	8cc\	.	.	.	16ccc\L	.
.	.	.	.	.	.	16aa\Jk	.	16aa\JJ	.
8d\	.	.	.	8dd\	.	4gg\	.	4bb\	.
8d\	.	.	.	8dd\	.	.	.	.	.
8D\	.	.	.	8dd\	.	4ff#\	.	4aa\	.
8D\J	.	.	.	8dd\J	.	.	.	.	.
=134	=134	=134	=134	=134	=134	=134	=134	=134	=134
*	*	*	*	*	*	*^	*	*^	*
4G\	.	2.r	.	4g\	.	4gg\	4ryy	.	4gg\	4ryy	.
4GG/	.	.	.	4G/	.	8.gg/L	8.b\L	.	8.gg/L	8.b\L	.
.	.	.	.	.	.	16gg/K	16b\K	.	16gg/K	16b\K	.
4GG/	.	.	.	4G/	.	8.gg/	8.b\	.	8.gg/	8.b\	.
.	.	.	.	.	.	16gg/Jk	16b\Jk	.	16gg/Jk	16b\Jk	.
=135	=135	=135	=135	=135	=135	=135	=135	=135	=135	=135	=135
8GG/L	.	4rBB	.	8G\L	.	4gg/	4b\	.	4gg/	4b\	.
16D/L	.	.	.	16d\L	.	.	.	.	.	.	.
16E/JJ	.	.	.	16e\JJ	.	.	.	.	.	.	.
*	*	*	*	*	*	*v	*v	*	*	*	*
8D/L	.	4rBB	.	8d/L	.	4r	.	4r	4ryy	.
8C/	.	.	.	8c/	.	.	.	.	.	.
!	!	!	!	!	!	!LO:TX:b:t=Dal ſegno	!	!	!	!
!	!	!	!	!	!	!LO:TX:b:t=135	!	!	!	!
!	!	!	!	!	!	!LO:TX:a:t=[segno]:problem=znak segno na kresce taktowej	!	!	!	!
8BB/	.	8rBB	.	8B/	.	4r	.	8r	4ryy	.
!	!	!	!	!LO:TX:b:t=135	!	!	!	!LO:TX:b:t=Dal ſegno	!	!
!LO:TX:b:t=Dal Segno	!	!	!	!LO:TX:b:t=Al ſegno	!	!	!	!LO:TX:b:t=135	!	!
!LO:TX:a:t=[segno]:problem=znak segno na kresce taktowej	!	!LO:TX:a:t=[segno]:problem=znak segno na kresce taktowej	!	!LO:TX:a:t=[segno]:problem=znak segno na kresce taktowej	!	!	!	!LO:TX:a:t=[segno]:problem=znak segno na kresce taktowej	!	!
8AA/J	.	8D\	Cae	8A/J	.	.	.	8dd\	.	.
*	*	*	*	*	*	*	*	*v	*v	*
==	==	==	==	==	==	==	==	==	==
*-	*-	*-	*-	*-	*-	*-	*-	*-	*-
!!!system-decoration: [g1][g2]
!!!RDF**kern: > = above
!!!RDF**kern: < = below
!!!RDF**kern: | = vertical stroke
!!!RDF**dynam: p = "p:"
!!!RDF**dynam: f = "f:"
!!!AIN: 1 empty 1 organ 1 viola 2 violn
!!!ENC: Andrzej Kubiczek
!!!END: 2021-03-31
!!!ENC: Tomasz Grochalski
!!!END: 2021-03-17
